;FLAVOR:Marlin
;TIME:10621
;Filament used: 10.7042m
;Layer height: 0.2
;Generated with Cura_SteamEngine 3.4.1
M190 S60
M104 S200
M109 S200
M82 ;absolute extrusion mode
;start gcode
;Basic settings: Layer height: 0.2 Walls: 1.2 Fill: {fill_density}
;Print time: 02:57:01
;Filament used: [10.7]m [31.925955468749997]g
;Filament cost: [0]
;M190 S60 ;Uncomment to add your own bed temperature line
;M109 S200 ;Uncomment to add your own temperature line
G21        ;metric values
G90        ;absolute positioning
M82        ;set extruder to absolute mode
M107       ;start with the fan off

G28 X0 Y0  ;move X/Y to min endstops
G28 Z0     ;move Z to min endstops

G1 Z15.0 F{travel_speed} ;move the platform down 15mm

G92 E0                  ;zero the extruded length
G1 F200 E3              ;extrude 3mm of feed stock
G92 E0                  ;zero the extruded length again
G1 F{travel_speed}
;Put printing message on LCD screen
M117 Printing...
G92 E0
G1 F4200 E-7
;LAYER_COUNT:292
;LAYER:0
M107
M204 S5000
M205 X30 Y30
G0 F1800 X69.837 Y81.551 Z0.15
M204 S500
M205 X20 Y20
;TYPE:SKIRT
G1 F4200 E0
G1 F1200 X70.419 Y81.136 E0.01783
G1 X71.044 Y80.787 E0.03569
G1 X71.704 Y80.511 E0.05353
G1 X72.39 Y80.311 E0.07136
G1 X73.095 Y80.188 E0.08921
G1 X73.948 Y80.145 E0.11051
G1 X83.786 Y80.309 E0.35596
G1 X146.2 Y80.319 E1.91288
G1 X146.914 Y80.359 E1.93072
G1 X147.619 Y80.479 E1.94856
G1 X148.307 Y80.676 E1.96641
G1 X148.968 Y80.949 E1.98425
G1 X149.595 Y81.294 E2.0021
G1 X150.179 Y81.707 E2.01995
G1 X150.713 Y82.182 E2.03777
G1 X151.191 Y82.714 E2.05562
G1 X151.607 Y83.296 E2.07346
G1 X151.955 Y83.921 E2.09131
G1 X152.231 Y84.581 E2.10915
G1 X152.432 Y85.267 E2.12698
G1 X152.555 Y85.972 E2.14483
G1 X152.599 Y86.719 E2.1635
G1 X152.598 Y133.282 E3.32502
G1 X152.558 Y133.996 E3.34286
G1 X152.439 Y134.702 E3.36072
G1 X152.241 Y135.389 E3.37855
G1 X151.968 Y136.05 E3.39639
G1 X151.623 Y136.677 E3.41424
G1 X151.211 Y137.261 E3.43207
G1 X150.735 Y137.795 E3.44992
G1 X150.203 Y138.274 E3.46777
G1 X149.621 Y138.689 E3.48561
G1 X148.997 Y139.038 E3.50344
G1 X148.337 Y139.314 E3.52129
G1 X147.651 Y139.515 E3.53912
G1 X146.946 Y139.638 E3.55697
G1 X146.199 Y139.682 E3.57564
G1 X84.022 Y139.691 E5.12665
G1 X77.391 Y139.864 E5.29211
G1 X77.205 Y139.866 E5.29675
G1 X73.824 Y139.856 E5.38109
G1 X73.11 Y139.814 E5.39894
G1 X72.405 Y139.692 E5.41678
G1 X71.718 Y139.493 E5.43463
G1 X71.058 Y139.218 E5.45246
G1 X70.432 Y138.871 E5.47032
G1 X69.849 Y138.457 E5.48815
G1 X69.513 Y138.168 E5.49921
G1 X69.439 Y138.1 E5.50171
G1 X69.181 Y137.85 E5.51068
G1 X69.039 Y137.704 E5.51576
G1 X68.57 Y137.164 E5.5336
G1 X68.164 Y136.576 E5.55142
G1 X67.826 Y135.945 E5.56928
G1 X67.56 Y135.281 E5.58712
G1 X67.371 Y134.591 E5.60497
G1 X67.259 Y133.885 E5.6228
G1 X67.227 Y133.242 E5.63886
G1 X67.227 Y86.759 E6.79838
G1 X67.267 Y86.045 E6.81622
G1 X67.386 Y85.34 E6.83406
G1 X67.584 Y84.652 E6.85192
G1 X67.857 Y83.991 E6.86975
G1 X68.201 Y83.364 E6.88759
G1 X68.614 Y82.78 E6.90544
G1 X69.091 Y82.244 E6.92334
G1 X69.305 Y82.029 E6.9309
G1 X69.837 Y81.551 E6.94874
M204 S5000
M205 X30 Y30
G0 F1800 X70.105 Y81.849
M204 S500
M205 X20 Y20
G1 F1200 X70.67 Y81.45 E6.966
G1 X71.278 Y81.119 E6.98327
G1 X71.921 Y80.86 E7.00056
G1 X72.588 Y80.676 E7.01782
G1 X73.273 Y80.571 E7.03511
G1 X73.941 Y80.545 E7.05178
G1 X83.779 Y80.709 E7.29723
G1 X146.2 Y80.719 E8.85432
G1 X146.891 Y80.759 E8.87159
G1 X147.573 Y80.879 E8.88886
G1 X148.237 Y81.076 E8.90614
G1 X148.874 Y81.348 E8.92342
G1 X149.475 Y81.692 E8.94069
G1 X150.032 Y82.103 E8.95796
G1 X150.539 Y82.576 E8.97526
G1 X150.987 Y83.103 E8.99251
G1 X151.372 Y83.679 E9.00979
G1 X151.688 Y84.296 E9.02709
G1 X151.931 Y84.944 E9.04435
G1 X152.097 Y85.616 E9.06162
G1 X152.185 Y86.303 E9.07889
G1 X152.199 Y86.719 E9.08928
G1 X152.198 Y133.282 E10.2508
G1 X152.158 Y133.974 E10.26809
G1 X152.039 Y134.656 E10.28536
G1 X151.841 Y135.32 E10.30264
G1 X151.569 Y135.956 E10.3199
G1 X151.225 Y136.557 E10.33717
G1 X150.814 Y137.115 E10.35446
G1 X150.342 Y137.621 E10.37172
G1 X149.814 Y138.07 E10.38901
G1 X149.238 Y138.455 E10.40629
G1 X148.622 Y138.77 E10.42355
G1 X147.974 Y139.013 E10.44081
G1 X147.301 Y139.18 E10.45811
G1 X146.614 Y139.268 E10.47539
G1 X146.199 Y139.282 E10.48574
G1 X84.011 Y139.291 E12.03703
G1 X77.38 Y139.464 E12.2025
G1 X77.206 Y139.466 E12.20684
G1 X73.825 Y139.456 E12.29118
G1 X73.134 Y139.414 E12.30845
G1 X72.452 Y139.293 E12.32573
G1 X71.789 Y139.093 E12.343
G1 X71.153 Y138.819 E12.36028
G1 X70.553 Y138.473 E12.37755
G1 X69.783 Y137.874 E12.40189
G1 X69.709 Y137.806 E12.40439
G1 X69.468 Y137.571 E12.41279
G1 X69.326 Y137.425 E12.41787
G1 X68.872 Y136.902 E12.43515
G1 X68.482 Y136.33 E12.45242
G1 X68.161 Y135.716 E12.4697
G1 X67.912 Y135.07 E12.48697
G1 X67.74 Y134.399 E12.50425
G1 X67.646 Y133.713 E12.52152
G1 X67.627 Y133.242 E12.53328
G1 X67.627 Y86.759 E13.6928
G1 X67.667 Y86.068 E13.71007
G1 X67.786 Y85.385 E13.72736
G1 X67.984 Y84.722 E13.74462
G1 X68.256 Y84.085 E13.7619
G1 X68.6 Y83.484 E13.77918
G1 X69.011 Y82.926 E13.79646
G1 X69.374 Y82.526 E13.80994
G1 X69.588 Y82.311 E13.81751
G1 X70.105 Y81.849 E13.8348
M204 S5000
M205 X30 Y30
G0 F1800 X70.371 Y82.148
M204 S500
M205 X20 Y20
G1 F1200 X70.92 Y81.766 E13.85149
G1 X71.511 Y81.452 E13.86818
G1 X72.135 Y81.21 E13.88487
G1 X72.783 Y81.045 E13.90156
G1 X73.447 Y80.958 E13.91826
G1 X73.934 Y80.945 E13.93041
G1 X83.772 Y81.109 E14.17586
G1 X146.2 Y81.119 E15.73313
G1 X146.868 Y81.159 E15.74982
G1 X147.526 Y81.278 E15.7665
G1 X148.165 Y81.476 E15.78319
G1 X148.777 Y81.747 E15.79989
G1 X149.351 Y82.09 E15.81657
G1 X149.881 Y82.499 E15.83327
G1 X150.358 Y82.968 E15.84995
G1 X150.775 Y83.491 E15.86664
G1 X151.127 Y84.06 E15.88333
G1 X151.409 Y84.667 E15.90003
G1 X151.617 Y85.303 E15.91672
G1 X151.747 Y85.959 E15.9334
G1 X151.799 Y86.719 E15.9524
G1 X151.798 Y133.282 E17.11392
G1 X151.758 Y133.95 E17.13061
G1 X151.639 Y134.608 E17.14729
G1 X151.442 Y135.248 E17.164
G1 X151.17 Y135.859 E17.18068
G1 X150.827 Y136.433 E17.19736
G1 X150.418 Y136.963 E17.21406
G1 X149.949 Y137.44 E17.23075
G1 X149.426 Y137.858 E17.24745
G1 X148.858 Y138.21 E17.26412
G1 X148.251 Y138.492 E17.28081
G1 X147.615 Y138.7 E17.29751
G1 X146.959 Y138.83 E17.31419
G1 X146.199 Y138.882 E17.33319
G1 X84.001 Y138.891 E18.88473
G1 X77.37 Y139.064 E19.05019
G1 X77.207 Y139.066 E19.05426
G1 X73.826 Y139.056 E19.1386
G1 X73.159 Y139.014 E19.15527
G1 X72.501 Y138.893 E19.17196
G1 X71.862 Y138.694 E19.18866
G1 X71.251 Y138.42 E19.20536
G1 X70.678 Y138.076 E19.22203
G1 X70.054 Y137.579 E19.24193
G1 X69.98 Y137.511 E19.24444
G1 X69.755 Y137.292 E19.25227
G1 X69.613 Y137.146 E19.25735
G1 X69.176 Y136.64 E19.27403
G1 X68.802 Y136.085 E19.29072
G1 X68.498 Y135.489 E19.30741
G1 X68.266 Y134.861 E19.32411
G1 X68.111 Y134.21 E19.34081
G1 X68.027 Y133.242 E19.36504
G1 X68.027 Y86.759 E20.52457
G1 X68.067 Y86.091 E20.54126
G1 X68.186 Y85.433 E20.55794
G1 X68.383 Y84.793 E20.57464
G1 X68.655 Y84.182 E20.59133
G1 X68.998 Y83.608 E20.60801
G1 X69.407 Y83.078 E20.62471
G1 X69.658 Y82.808 E20.6339
G1 X69.872 Y82.593 E20.64147
G1 X70.371 Y82.148 E20.65815
M204 S5000
M205 X30 Y30
G0 F1800 X70.638 Y82.448
M204 S500
M205 X20 Y20
G1 F1200 X71.169 Y82.083 E20.67422
G1 X71.742 Y81.787 E20.69031
G1 X72.347 Y81.563 E20.7064
G1 X72.974 Y81.417 E20.72246
G1 X73.928 Y81.345 E20.74633
G1 X83.766 Y81.509 E20.99177
G1 X146.2 Y81.519 E22.54919
G1 X146.843 Y81.559 E22.56527
G1 X147.477 Y81.678 E22.58136
G1 X148.091 Y81.875 E22.59744
G1 X148.675 Y82.147 E22.61351
G1 X149.222 Y82.488 E22.62959
G1 X149.722 Y82.895 E22.64567
G1 X150.169 Y83.36 E22.66176
G1 X150.554 Y83.877 E22.67784
G1 X150.872 Y84.438 E22.69393
G1 X151.118 Y85.034 E22.71001
G1 X151.289 Y85.655 E22.72608
G1 X151.382 Y86.293 E22.74216
G1 X151.399 Y86.719 E22.7528
G1 X151.398 Y133.282 E23.91432
G1 X151.358 Y133.926 E23.93041
G1 X151.239 Y134.559 E23.94648
G1 X151.042 Y135.173 E23.96257
G1 X150.771 Y135.758 E23.97865
G1 X150.429 Y136.305 E23.99474
G1 X150.023 Y136.805 E24.01081
G1 X149.557 Y137.251 E24.0269
G1 X149.04 Y137.636 E24.04298
G1 X148.48 Y137.955 E24.05905
G1 X147.884 Y138.201 E24.07514
G1 X147.263 Y138.372 E24.09121
G1 X146.625 Y138.464 E24.10729
G1 X146.199 Y138.482 E24.11792
G1 X83.991 Y138.491 E25.66971
G1 X77.36 Y138.664 E25.83517
G1 X77.209 Y138.666 E25.83894
G1 X73.828 Y138.656 E25.92328
G1 X73.184 Y138.614 E25.93938
G1 X72.551 Y138.493 E25.95546
G1 X71.938 Y138.294 E25.97153
G1 X71.354 Y138.021 E25.98761
G1 X70.808 Y137.678 E26.0037
G1 X70.325 Y137.285 E26.01923
G1 X70.251 Y137.217 E26.02174
G1 X70.041 Y137.014 E26.02902
G1 X69.899 Y136.868 E26.0341
G1 X69.479 Y136.378 E26.0502
G1 X69.123 Y135.841 E26.06627
G1 X68.836 Y135.264 E26.08235
G1 X68.623 Y134.656 E26.09842
G1 X68.486 Y134.025 E26.11453
G1 X68.427 Y133.242 E26.13412
G1 X68.427 Y86.759 E27.29364
G1 X68.467 Y86.116 E27.30971
G1 X68.586 Y85.482 E27.3258
G1 X68.783 Y84.868 E27.34189
G1 X69.054 Y84.283 E27.35797
G1 X69.396 Y83.736 E27.37406
G1 X69.941 Y83.091 E27.39513
G1 X70.155 Y82.876 E27.40269
G1 X70.638 Y82.448 E27.41879
M204 S5000
M205 X30 Y30
G0 F1800 X73.919 Y86.734
M204 S500
M205 X20 Y20
;TYPE:SUPPORT
G1 F1200 X75.922 Y86.734 E27.46876
G1 X77.934 Y86.746 E27.51895
G1 X77.934 Y133.266 E28.67939
G1 X73.919 Y133.266 E28.77955
G1 X73.817 Y133.164 E28.78314
G1 X73.817 Y86.836 E29.9388
G1 X73.919 Y86.734 E29.9424
M204 S5000
M205 X30 Y30
G0 F1800 X74.648 Y86.897
M204 S500
M205 X20 Y20
G1 F1200 X74.648 Y133.103 E31.09501
M204 S5000
M205 X30 Y30
G0 F1800 X73.979 Y130.634
M204 S500
M205 X20 Y20
G1 F1200 X77.77 Y130.634 E31.18958
M204 S5000
M205 X30 Y30
G0 F1800 X77.314 Y133.103
M204 S500
M205 X20 Y20
G1 F1200 X77.314 Y86.906 E32.34197
M204 S5000
M205 X30 Y30
G0 F1800 X77.771 Y87.978
M204 S500
M205 X20 Y20
G1 F1200 X73.98 Y87.978 E32.43654
M204 S5000
M205 X30 Y30
G0 F1800 X73.98 Y90.644
M204 S500
M205 X20 Y20
G1 F1200 X77.771 Y90.644 E32.5311
M204 S5000
M205 X30 Y30
G0 F1800 X77.771 Y93.31
M204 S500
M205 X20 Y20
G1 F1200 X73.98 Y93.31 E32.62567
M204 S5000
M205 X30 Y30
G0 F1800 X73.98 Y95.976
M204 S500
M205 X20 Y20
G1 F1200 X77.771 Y95.976 E32.72024
M204 S5000
M205 X30 Y30
G0 F1800 X77.771 Y98.642
M204 S500
M205 X20 Y20
G1 F1200 X73.98 Y98.642 E32.8148
M204 S5000
M205 X30 Y30
G0 F1800 X73.98 Y101.308
M204 S500
M205 X20 Y20
G1 F1200 X77.771 Y101.308 E32.90937
M204 S5000
M205 X30 Y30
G0 F1800 X77.771 Y103.974
M204 S500
M205 X20 Y20
G1 F1200 X73.98 Y103.974 E33.00394
M204 S5000
M205 X30 Y30
G0 F1800 X73.98 Y106.64
M204 S500
M205 X20 Y20
G1 F1200 X77.771 Y106.64 E33.0985
M204 S5000
M205 X30 Y30
G0 F1800 X77.771 Y109.306
M204 S500
M205 X20 Y20
G1 F1200 X73.98 Y109.306 E33.19307
M204 S5000
M205 X30 Y30
G0 F1800 X73.98 Y111.972
M204 S500
M205 X20 Y20
G1 F1200 X77.771 Y111.972 E33.28764
M204 S5000
M205 X30 Y30
G0 F1800 X77.771 Y114.638
M204 S500
M205 X20 Y20
G1 F1200 X73.98 Y114.638 E33.3822
M204 S5000
M205 X30 Y30
G0 F1800 X73.98 Y117.304
M204 S500
M205 X20 Y20
G1 F1200 X77.771 Y117.304 E33.47677
M204 S5000
M205 X30 Y30
G0 F1800 X77.77 Y119.97
M204 S500
M205 X20 Y20
G1 F1200 X73.979 Y119.97 E33.57134
M204 S5000
M205 X30 Y30
G0 F1800 X73.979 Y122.636
M204 S500
M205 X20 Y20
G1 F1200 X77.77 Y122.636 E33.66591
M204 S5000
M205 X30 Y30
G0 F1800 X77.77 Y125.302
M204 S500
M205 X20 Y20
G1 F1200 X73.979 Y125.302 E33.76047
M204 S5000
M205 X30 Y30
G0 F1800 X73.979 Y127.968
M204 S500
M205 X20 Y20
G1 F1200 X77.77 Y127.968 E33.85504
M204 S5000
M205 X30 Y30
G1 F4200 E26.85504
G0 F1800 X78.169 Y127.968
G0 X79.354 Y127.968
G0 X145.333 Y132.416
M204 S500
M205 X20 Y20
;TYPE:WALL-INNER
G1 F4200 E33.85504
G1 F1200 X79.684 Y132.416 E35.28796
G1 X79.684 Y87.584 E36.2665
G1 X145.333 Y87.584 E37.69942
G1 X145.333 Y132.416 E38.67797
M204 S5000
M205 X30 Y30
G0 F1800 X145.683 Y132.766
M204 S500
M205 X20 Y20
G1 F1200 X79.334 Y132.766 E40.12617
G1 X79.334 Y87.234 E41.11999
G1 X145.683 Y87.234 E42.56819
G1 X145.683 Y132.766 E43.56201
M204 S5000
M205 X30 Y30
G0 F1800 X146.008 Y133.091
M204 S500
M205 X20 Y20
;TYPE:WALL-OUTER
G1 F1200 X79.009 Y133.091 E45.0244
G1 X79.009 Y86.909 E46.03241
G1 X146.008 Y86.909 E47.4948
G1 X146.008 Y133.091 E48.50281
M204 S5000
M205 X30 Y30
G0 F1800 X145.808 Y133.091
G0 X145.613 Y132.696
G0 X144.993 Y132.076
M204 S500
M205 X20 Y20
;TYPE:SKIN
G1 F1200 X80.024 Y132.076 E49.92088
G1 X80.024 Y87.924 E50.88459
G1 X144.993 Y87.924 E52.30266
G1 X144.993 Y132.076 E53.26637
M204 S5000
M205 X30 Y30
G0 F1800 X144.834 Y88.407
M204 S500
M205 X20 Y20
G1 F1200 X144.509 Y88.082 E53.2764
M204 S5000
M205 X30 Y30
G0 F1800 X144.014 Y88.082
M204 S500
M205 X20 Y20
G1 F1200 X144.834 Y88.902 E53.30171
G1 X144.895 Y88.963
M204 S5000
M205 X30 Y30
G0 F1800 X144.834 Y89.397
M204 S500
M205 X20 Y20
G1 F1200 X143.519 Y88.082 E53.3423
G1 X143.458 Y88.021
M204 S5000
M205 X30 Y30
G0 F1800 X143.024 Y88.082
M204 S500
M205 X20 Y20
G1 F1200 X144.834 Y89.892 E53.39818
G1 X144.895 Y89.953
M204 S5000
M205 X30 Y30
G0 F1800 X144.834 Y90.387
M204 S500
M205 X20 Y20
G1 F1200 X142.529 Y88.082 E53.46933
G1 X142.468 Y88.021
M204 S5000
M205 X30 Y30
G0 F1800 X142.034 Y88.082
M204 S500
M205 X20 Y20
G1 F1200 X144.834 Y90.882 E53.55576
G1 X144.895 Y90.943
M204 S5000
M205 X30 Y30
G0 F1800 X144.834 Y91.377
M204 S500
M205 X20 Y20
G1 F1200 X141.539 Y88.082 E53.65747
G1 X141.478 Y88.021
M204 S5000
M205 X30 Y30
G0 F1800 X141.044 Y88.082
M204 S500
M205 X20 Y20
G1 F1200 X144.834 Y91.872 E53.77446
G1 X144.895 Y91.933
M204 S5000
M205 X30 Y30
G0 F1800 X144.834 Y92.367
M204 S500
M205 X20 Y20
G1 F1200 X140.549 Y88.082 E53.90673
G1 X140.488 Y88.021
M204 S5000
M205 X30 Y30
G0 F1800 X140.054 Y88.082
M204 S500
M205 X20 Y20
G1 F1200 X144.834 Y92.862 E54.05427
G1 X144.895 Y92.923
M204 S5000
M205 X30 Y30
G0 F1800 X144.834 Y93.357
M204 S500
M205 X20 Y20
G1 F1200 X139.559 Y88.082 E54.2171
G1 X139.498 Y88.021
M204 S5000
M205 X30 Y30
G0 F1800 X139.064 Y88.082
M204 S500
M205 X20 Y20
G1 F1200 X144.834 Y93.852 E54.39521
G1 X144.895 Y93.913
M204 S5000
M205 X30 Y30
G0 F1800 X144.834 Y94.347
M204 S500
M205 X20 Y20
G1 F1200 X138.569 Y88.082 E54.5886
G1 X138.508 Y88.021
M204 S5000
M205 X30 Y30
G0 F1800 X138.074 Y88.082
M204 S500
M205 X20 Y20
G1 F1200 X144.834 Y94.842 E54.79727
G1 X144.895 Y94.903
M204 S5000
M205 X30 Y30
G0 F1800 X144.834 Y95.337
M204 S500
M205 X20 Y20
G1 F1200 X137.579 Y88.082 E55.02121
G1 X137.518 Y88.021
M204 S5000
M205 X30 Y30
G0 F1800 X137.084 Y88.082
M204 S500
M205 X20 Y20
G1 F1200 X144.834 Y95.832 E55.26044
G1 X144.895 Y95.893
M204 S5000
M205 X30 Y30
G0 F1800 X144.834 Y96.327
M204 S500
M205 X20 Y20
G1 F1200 X136.589 Y88.082 E55.51495
G1 X136.528 Y88.021
M204 S5000
M205 X30 Y30
G0 F1800 X136.094 Y88.082
M204 S500
M205 X20 Y20
G1 F1200 X144.834 Y96.822 E55.78473
G1 X144.895 Y96.883
M204 S5000
M205 X30 Y30
G0 F1800 X144.834 Y97.316
M204 S500
M205 X20 Y20
G1 F1200 X135.599 Y88.082 E56.06978
G1 X135.538 Y88.021
M204 S5000
M205 X30 Y30
G0 F1800 X135.104 Y88.082
M204 S500
M205 X20 Y20
G1 F1200 X144.834 Y97.811 E56.37011
G1 X144.895 Y97.872
M204 S5000
M205 X30 Y30
G0 F1800 X144.834 Y98.306
M204 S500
M205 X20 Y20
G1 F1200 X134.609 Y88.082 E56.68572
G1 X134.548 Y88.021
M204 S5000
M205 X30 Y30
G0 F1800 X134.114 Y88.082
M204 S500
M205 X20 Y20
G1 F1200 X144.834 Y98.801 E57.01661
G1 X144.895 Y98.862
M204 S5000
M205 X30 Y30
G0 F1800 X144.834 Y99.296
M204 S500
M205 X20 Y20
G1 F1200 X133.619 Y88.082 E57.36278
G1 X133.558 Y88.021
M204 S5000
M205 X30 Y30
G0 F1800 X133.124 Y88.082
M204 S500
M205 X20 Y20
G1 F1200 X144.834 Y99.791 E57.72423
G1 X144.895 Y99.852
M204 S5000
M205 X30 Y30
G0 F1800 X144.834 Y100.286
M204 S500
M205 X20 Y20
G1 F1200 X132.629 Y88.082 E58.10096
G1 X132.568 Y88.021
M204 S5000
M205 X30 Y30
G0 F1800 X132.134 Y88.082
M204 S500
M205 X20 Y20
G1 F1200 X144.834 Y100.781 E58.49297
G1 X144.895 Y100.842
M204 S5000
M205 X30 Y30
G0 F1800 X144.834 Y101.276
M204 S500
M205 X20 Y20
G1 F1200 X131.639 Y88.082 E58.90026
G1 X131.578 Y88.021
M204 S5000
M205 X30 Y30
G0 F1800 X131.144 Y88.082
M204 S500
M205 X20 Y20
G1 F1200 X144.834 Y101.771 E59.32282
G1 X144.895 Y101.832
M204 S5000
M205 X30 Y30
G0 F1800 X144.834 Y102.266
M204 S500
M205 X20 Y20
G1 F1200 X130.649 Y88.082 E59.76067
