;FLAVOR:Marlin
;TIME:3181
;Filament used: 1.6869m
;Layer height: 0.2
;Generated with Cura_SteamEngine 3.4.1
M190 S60
M104 S200
M109 S200
M82 ;absolute extrusion mode
;start gcode
;Basic settings: Layer height: 0.2 Walls: 1.2 Fill: {fill_density}
;Print time: 00:53:01
;Filament used: [1.69]m [5.0312479296875]g
;Filament cost: [0]
;M190 S60 ;Uncomment to add your own bed temperature line
;M109 S200 ;Uncomment to add your own temperature line
G21        ;metric values
G90        ;absolute positioning
M82        ;set extruder to absolute mode
M107       ;start with the fan off

G28 X0 Y0  ;move X/Y to min endstops
G28 Z0     ;move Z to min endstops

G1 Z15.0 F{travel_speed} ;move the platform down 15mm

G92 E0                  ;zero the extruded length
G1 F200 E3              ;extrude 3mm of feed stock
G92 E0                  ;zero the extruded length again
G1 F{travel_speed}
;Put printing message on LCD screen
M117 Printing...
G92 E0
G1 F4200 E-7
;LAYER_COUNT:274
;LAYER:0
M107
M204 S5000
M205 X30 Y30
G0 F1800 X96.202 Y96.431 Z0.15
M204 S500
M205 X20 Y20
;TYPE:SKIRT
G1 F4200 E0
G1 F1200 X96.918 Y95.788 E0.02401
G1 X99.602 Y93.722 E0.1085
G1 X100.192 Y93.319 E0.12632
G1 X101.046 Y92.886 E0.1502
G1 X104.161 Y91.589 E0.23438
G1 X104.836 Y91.351 E0.25223
G1 X105.773 Y91.153 E0.27612
G1 X109.131 Y90.704 E0.36063
G1 X109.844 Y90.649 E0.37847
G1 X110.8 Y90.701 E0.40235
G1 X114.146 Y91.134 E0.48651
G1 X114.849 Y91.265 E0.50435
G1 X115.762 Y91.563 E0.52831
G1 X118.89 Y92.851 E0.61269
G1 X119.535 Y93.16 E0.63053
G1 X120.338 Y93.683 E0.65444
G1 X123.024 Y95.735 E0.73876
G1 X123.568 Y96.201 E0.75663
G1 X124.209 Y96.915 E0.78056
G1 X126.275 Y99.597 E0.86501
G1 X126.679 Y100.188 E0.88287
G1 X127.113 Y101.042 E0.90677
G1 X128.411 Y104.158 E0.99097
G1 X128.649 Y104.833 E1.00882
G1 X128.847 Y105.771 E1.03274
G1 X129.296 Y109.129 E1.11725
G1 X129.351 Y109.842 E1.13509
G1 X129.299 Y110.798 E1.15897
G1 X128.866 Y114.145 E1.24316
G1 X128.735 Y114.848 E1.26099
G1 X128.437 Y115.76 E1.28493
G1 X127.149 Y118.889 E1.36934
G1 X126.84 Y119.534 E1.38718
G1 X126.317 Y120.338 E1.4111
G1 X124.265 Y123.024 E1.49542
G1 X123.799 Y123.568 E1.51329
G1 X123.084 Y124.209 E1.53724
G1 X120.403 Y126.274 E1.62166
G1 X119.813 Y126.678 E1.6395
G1 X118.96 Y127.112 E1.66337
G1 X115.843 Y128.411 E1.74761
G1 X115.168 Y128.648 E1.76545
G1 X114.229 Y128.847 E1.78939
G1 X110.87 Y129.296 E1.87393
G1 X110.157 Y129.351 E1.89177
G1 X109.201 Y129.299 E1.91565
G1 X105.854 Y128.866 E1.99984
G1 X105.151 Y128.735 E2.01768
G1 X104.236 Y128.436 E2.04169
G1 X101.101 Y127.144 E2.12627
G1 X100.456 Y126.835 E2.14411
G1 X99.654 Y126.312 E2.168
G1 X96.974 Y124.264 E2.25214
G1 X96.431 Y123.799 E2.26997
G1 X95.789 Y123.083 E2.29396
G1 X93.724 Y120.401 E2.37839
G1 X93.32 Y119.811 E2.39623
G1 X92.887 Y118.958 E2.42009
G1 X91.589 Y115.842 E2.5043
G1 X91.351 Y115.167 E2.52215
G1 X91.153 Y114.229 E2.54607
G1 X90.704 Y110.87 E2.6306
G1 X90.649 Y110.157 E2.64844
G1 X90.701 Y109.201 E2.67232
G1 X91.134 Y105.855 E2.75649
G1 X91.265 Y105.152 E2.77432
G1 X91.563 Y104.24 E2.79826
G1 X92.851 Y101.111 E2.88266
G1 X93.16 Y100.466 E2.90051
G1 X93.683 Y99.661 E2.92445
G1 X95.736 Y96.974 E3.0088
G1 X96.202 Y96.431 E3.02665
M204 S5000
M205 X30 Y30
G0 F1800 X96.506 Y96.692
M204 S500
M205 X20 Y20
G1 F1200 X97.162 Y96.105 E3.04861
G1 X99.846 Y94.039 E3.1331
G1 X100.418 Y93.649 E3.15037
G1 X101.2 Y93.255 E3.17222
G1 X104.315 Y91.958 E3.25639
G1 X104.968 Y91.729 E3.27365
G1 X105.826 Y91.55 E3.29551
G1 X109.184 Y91.101 E3.38002
G1 X109.874 Y91.049 E3.39728
G1 X110.749 Y91.098 E3.41915
G1 X114.095 Y91.531 E3.50331
G1 X114.776 Y91.659 E3.52059
G1 X115.609 Y91.933 E3.54247
G1 X118.737 Y93.221 E3.62685
G1 X119.362 Y93.521 E3.64415
G1 X120.095 Y94.001 E3.666
G1 X122.781 Y96.053 E3.75032
G1 X123.307 Y96.505 E3.76762
G1 X123.892 Y97.159 E3.78951
G1 X125.958 Y99.841 E3.87396
G1 X126.348 Y100.414 E3.89125
G1 X126.744 Y101.196 E3.91312
G1 X128.042 Y104.312 E3.99732
G1 X128.271 Y104.965 E4.01458
G1 X128.45 Y105.824 E4.03647
G1 X128.899 Y109.182 E4.12098
G1 X128.951 Y109.872 E4.13824
G1 X128.902 Y110.747 E4.1601
G1 X128.469 Y114.094 E4.24429
G1 X128.341 Y114.774 E4.26155
G1 X128.067 Y115.608 E4.28345
G1 X126.779 Y118.737 E4.36785
G1 X126.479 Y119.361 E4.38513
G1 X125.999 Y120.095 E4.407
G1 X123.947 Y122.781 E4.49132
G1 X123.495 Y123.307 E4.50862
G1 X122.84 Y123.892 E4.53053
G1 X120.159 Y125.957 E4.61494
G1 X119.587 Y126.348 E4.63223
G1 X118.806 Y126.742 E4.65405
G1 X115.689 Y128.041 E4.73828
G1 X115.036 Y128.27 E4.75555
G1 X114.176 Y128.45 E4.77746
G1 X110.817 Y128.899 E4.862
G1 X110.126 Y128.951 E4.87929
G1 X109.252 Y128.902 E4.90112
G1 X105.905 Y128.469 E4.98531
G1 X105.225 Y128.341 E5.00257
G1 X104.389 Y128.066 E5.02452
G1 X101.254 Y126.774 E5.10911
G1 X100.63 Y126.474 E5.12638
G1 X99.897 Y125.994 E5.14823
G1 X97.217 Y123.946 E5.23237
G1 X96.692 Y123.495 E5.24964
G1 X96.106 Y122.839 E5.27158
G1 X94.041 Y120.157 E5.35602
G1 X93.651 Y119.585 E5.37328
G1 X93.256 Y118.804 E5.39512
G1 X91.958 Y115.688 E5.47932
G1 X91.729 Y115.035 E5.49658
G1 X91.55 Y114.176 E5.51847
G1 X91.101 Y110.817 E5.60301
G1 X91.049 Y110.126 E5.62029
G1 X91.098 Y109.252 E5.64213
G1 X91.531 Y105.906 E5.72629
G1 X91.659 Y105.225 E5.74358
G1 X91.933 Y104.392 E5.76545
G1 X93.221 Y101.263 E5.84986
G1 X93.521 Y100.639 E5.86713
G1 X94.001 Y99.904 E5.88903
G1 X96.054 Y97.217 E5.97338
G1 X96.506 Y96.692 E5.99066
M204 S5000
M205 X30 Y30
G0 F1800 X96.809 Y96.954
M204 S500
M205 X20 Y20
G1 F1200 X97.406 Y96.422 E6.01061
G1 X100.09 Y94.356 E6.0951
G1 X100.644 Y93.981 E6.11179
G1 X101.353 Y93.624 E6.13159
G1 X104.468 Y92.327 E6.21576
G1 X105.1 Y92.107 E6.23245
G1 X105.879 Y91.946 E6.25229
G1 X109.237 Y91.497 E6.33681
G1 X109.904 Y91.449 E6.35349
G1 X110.698 Y91.494 E6.37333
G1 X114.044 Y91.927 E6.45749
G1 X114.701 Y92.053 E6.47418
G1 X115.457 Y92.303 E6.49404
G1 X118.585 Y93.591 E6.57842
G1 X119.188 Y93.882 E6.59512
G1 X119.853 Y94.319 E6.61497
G1 X122.539 Y96.371 E6.69929
G1 X123.045 Y96.808 E6.71597
G1 X123.575 Y97.404 E6.73586
G1 X125.641 Y100.086 E6.82032
G1 X126.017 Y100.639 E6.837
G1 X126.374 Y101.35 E6.85684
G1 X127.672 Y104.466 E6.94105
G1 X127.892 Y105.097 E6.95772
G1 X128.054 Y105.877 E6.97759
G1 X128.503 Y109.235 E7.0621
G1 X128.551 Y109.902 E7.07878
G1 X128.506 Y110.695 E7.09859
G1 X128.073 Y114.042 E7.18278
G1 X127.947 Y114.7 E7.19949
G1 X127.697 Y115.456 E7.21936
G1 X126.409 Y118.585 E7.30376
G1 X126.118 Y119.187 E7.32044
G1 X125.681 Y119.853 E7.34031
G1 X123.629 Y122.539 E7.42463
G1 X123.192 Y123.045 E7.44131
G1 X122.596 Y123.576 E7.46122
G1 X119.915 Y125.641 E7.54564
G1 X119.362 Y126.016 E7.5623
G1 X118.652 Y126.373 E7.58213
G1 X115.535 Y127.672 E7.66636
G1 X114.903 Y127.892 E7.68306
G1 X114.123 Y128.054 E7.70293
G1 X110.764 Y128.503 E7.78747
G1 X110.097 Y128.552 E7.80415
G1 X109.304 Y128.506 E7.82396
G1 X105.957 Y128.073 E7.90815
G1 X105.299 Y127.947 E7.92486
G1 X104.541 Y127.697 E7.94477
G1 X101.406 Y126.405 E8.02936
G1 X100.804 Y126.113 E8.04605
G1 X100.14 Y125.677 E8.06586
G1 X97.46 Y123.629 E8.15
G1 X96.953 Y123.191 E8.16671
G1 X96.423 Y122.595 E8.18661
G1 X94.358 Y119.913 E8.27105
G1 X93.982 Y119.36 E8.28773
G1 X93.626 Y118.65 E8.30754
G1 X92.328 Y115.534 E8.39174
G1 X92.108 Y114.903 E8.40841
G1 X91.946 Y114.123 E8.42828
G1 X91.497 Y110.764 E8.51282
G1 X91.448 Y110.097 E8.5295
G1 X91.494 Y109.303 E8.54934
G1 X91.927 Y105.957 E8.63351
G1 X92.053 Y105.3 E8.65019
G1 X92.303 Y104.544 E8.67006
G1 X93.591 Y101.415 E8.75446
G1 X93.882 Y100.813 E8.77114
G1 X94.319 Y100.147 E8.79101
G1 X96.372 Y97.46 E8.87537
G1 X96.809 Y96.954 E8.89204
M204 S5000
M205 X30 Y30
G0 F1800 X97.112 Y97.216
M204 S500
M205 X20 Y20
G1 F1200 X97.65 Y96.739 E8.90998
G1 X100.334 Y94.673 E8.99447
G1 X100.868 Y94.313 E9.01054
G1 X101.507 Y93.993 E9.02836
G1 X104.622 Y92.696 E9.11253
G1 X105.232 Y92.486 E9.12863
G1 X105.932 Y92.343 E9.14645
G1 X109.29 Y91.894 E9.23096
G1 X109.933 Y91.848 E9.24704
G1 X110.646 Y91.891 E9.26486
G1 X113.992 Y92.324 E9.34902
G1 X114.625 Y92.446 E9.3651
G1 X115.305 Y92.673 E9.38298
G1 X118.433 Y93.961 E9.46737
G1 X119.013 Y94.243 E9.48346
G1 X119.61 Y94.637 E9.5013
G1 X122.296 Y96.689 E9.58562
G1 X122.783 Y97.111 E9.60169
G1 X123.258 Y97.648 E9.61958
G1 X125.324 Y100.33 E9.70403
G1 X125.685 Y100.864 E9.72011
G1 X126.005 Y101.503 E9.73793
G1 X127.303 Y104.619 E9.82214
G1 X127.514 Y105.229 E9.83824
G1 X127.657 Y105.93 E9.85608
G1 X128.106 Y109.288 E9.94059
G1 X128.152 Y109.931 E9.95668
G1 X128.109 Y110.644 E9.97449
G1 X127.676 Y113.991 E10.05868
G1 X127.554 Y114.624 E10.07476
G1 X127.328 Y115.303 E10.09261
G1 X126.04 Y118.432 E10.17702
G1 X125.758 Y119.012 E10.19311
G1 X125.363 Y119.61 E10.21098
G1 X123.311 Y122.296 E10.2953
G1 X122.889 Y122.783 E10.31138
G1 X122.352 Y123.259 E10.32928
G1 X119.671 Y125.324 E10.41369
G1 X119.137 Y125.685 E10.42977
G1 X118.498 Y126.004 E10.44759
G1 X115.381 Y127.303 E10.53182
G1 X114.772 Y127.513 E10.54789
G1 X114.07 Y127.657 E10.56577
G1 X110.711 Y128.106 E10.65031
G1 X110.068 Y128.152 E10.66639
G1 X109.355 Y128.109 E10.6842
G1 X106.008 Y127.676 E10.76839
G1 X105.375 Y127.554 E10.78447
G1 X104.694 Y127.327 E10.80238
G1 X101.559 Y126.035 E10.88696
G1 X100.979 Y125.753 E10.90305
G1 X100.383 Y125.359 E10.92087
G1 X97.703 Y123.311 E11.00501
G1 X97.216 Y122.888 E11.0211
G1 X96.74 Y122.351 E11.039
G1 X94.675 Y119.669 E11.12344
G1 X94.314 Y119.135 E11.13952
G1 X93.995 Y118.497 E11.15731
G1 X92.697 Y115.381 E11.24151
G1 X92.486 Y114.771 E11.25762
G1 X92.343 Y114.07 E11.27546
G1 X91.894 Y110.711 E11.36
G1 X91.848 Y110.068 E11.37608
G1 X91.891 Y109.355 E11.3939
G1 X92.324 Y106.009 E11.47806
G1 X92.446 Y105.376 E11.49414
G1 X92.672 Y104.697 E11.51199
G1 X93.96 Y101.568 E11.5964
G1 X94.242 Y100.988 E11.61249
G1 X94.637 Y100.39 E11.63036
G1 X96.69 Y97.703 E11.71472
G1 X97.112 Y97.216 E11.73079
M204 S5000
M205 X30 Y30
G1 F4200 E4.73079
G0 F1800 X103.074 Y98.307
G0 X103.795 Y99.247
G0 X113.127 Y98.328
M204 S500
M205 X20 Y20
;TYPE:WALL-INNER
G1 F4200 E11.73079
G1 F1200 X116.038 Y99.535 E11.79957
G1 X118.543 Y101.457 E11.86849
G1 X120.465 Y103.962 E11.93741
G1 X121.672 Y106.873 E12.00619
G1 X122.083 Y110 E12.07503
G1 X121.672 Y113.127 E12.14387
G1 X120.465 Y116.038 E12.21265
G1 X118.543 Y118.543 E12.28157
G1 X116.038 Y120.465 E12.35049
G1 X113.127 Y121.672 E12.41927
G1 X110 Y122.083 E12.48811
G1 X106.873 Y121.672 E12.55695
G1 X103.963 Y120.465 E12.62571
G1 X101.457 Y118.543 E12.69465
G1 X99.535 Y116.038 E12.76356
G1 X98.328 Y113.127 E12.83235
G1 X97.917 Y110 E12.90119
G1 X98.328 Y106.873 E12.97003
G1 X99.535 Y103.962 E13.03881
G1 X101.457 Y101.457 E13.10773
G1 X103.963 Y99.535 E13.17666
G1 X106.873 Y98.328 E13.24542
G1 X110 Y97.917 E13.31426
G1 X113.127 Y98.328 E13.3831
M204 S5000
M205 X30 Y30
G0 F1800 X113.217 Y97.987
M204 S500
M205 X20 Y20
G1 F1200 X116.216 Y99.23 E13.45396
G1 X118.793 Y101.207 E13.52486
G1 X120.77 Y103.784 E13.59575
G1 X122.013 Y106.783 E13.66661
G1 X122.436 Y110 E13.73743
G1 X122.013 Y113.217 E13.80825
G1 X120.77 Y116.216 E13.87911
G1 X118.793 Y118.793 E13.95
G1 X116.216 Y120.77 E14.0209
G1 X113.217 Y122.013 E14.09176
G1 X110 Y122.436 E14.16258
G1 X106.783 Y122.013 E14.2334
G1 X103.785 Y120.77 E14.30424
G1 X101.207 Y118.793 E14.37515
G1 X99.23 Y116.216 E14.44604
G1 X97.987 Y113.217 E14.5169
G1 X97.564 Y110 E14.58773
G1 X97.987 Y106.783 E14.65855
G1 X99.23 Y103.784 E14.72941
G1 X101.207 Y101.207 E14.8003
G1 X103.785 Y99.23 E14.87121
G1 X106.783 Y97.987 E14.94205
G1 X110 Y97.564 E15.01287
G1 X113.217 Y97.987 E15.08369
M204 S5000
M205 X30 Y30
G0 F1800 X113.301 Y97.671
M204 S500
M205 X20 Y20
;TYPE:WALL-OUTER
G1 F1200 X116.382 Y98.947 E15.15648
G1 X119.025 Y100.975 E15.2292
G1 X121.053 Y103.618 E15.30191
G1 X122.329 Y106.699 E15.3747
G1 X122.764 Y110 E15.44737
G1 X122.329 Y113.301 E15.52005
G1 X121.053 Y116.382 E15.59283
G1 X119.025 Y119.025 E15.66555
G1 X116.382 Y121.053 E15.73826
G1 X113.301 Y122.329 E15.81105
G1 X110 Y122.764 E15.88372
G1 X106.699 Y122.329 E15.9564
G1 X103.619 Y121.053 E16.02917
G1 X100.975 Y119.025 E16.1019
G1 X98.947 Y116.382 E16.17461
G1 X97.671 Y113.301 E16.2474
G1 X97.236 Y110 E16.32007
G1 X97.671 Y106.699 E16.39275
G1 X98.947 Y103.618 E16.46554
G1 X100.975 Y100.975 E16.53825
G1 X103.619 Y98.947 E16.61098
G1 X106.699 Y97.671 E16.68375
G1 X110 Y97.236 E16.75642
G1 X113.301 Y97.671 E16.8291
M204 S5000
M205 X30 Y30
G0 F1800 X113.485 Y97.747
G0 X113.322 Y98.138
G0 X113.042 Y98.66
M204 S500
M205 X20 Y20
;TYPE:SKIN
G1 F1200 X115.865 Y99.831 E16.8958
G1 X118.3 Y101.7 E16.9628
G1 X120.169 Y104.135 E17.0298
G1 X121.34 Y106.958 E17.09651
G1 X121.739 Y110 E17.16348
G1 X121.34 Y113.042 E17.23045
G1 X120.169 Y115.865 E17.29715
G1 X118.3 Y118.3 E17.36415
G1 X115.865 Y120.169 E17.43115
G1 X113.042 Y121.34 E17.49786
G1 X110 Y121.739 E17.56483
G1 X106.958 Y121.34 E17.63179
G1 X104.136 Y120.169 E17.69848
G1 X101.7 Y118.3 E17.7655
G1 X99.831 Y115.865 E17.8325
G1 X98.66 Y113.042 E17.89921
G1 X98.261 Y110 E17.96617
G1 X98.66 Y106.958 E18.03314
G1 X99.831 Y104.135 E18.09985
G1 X101.7 Y101.7 E18.16685
G1 X104.136 Y99.831 E18.23387
G1 X106.958 Y98.66 E18.30055
G1 X110 Y98.261 E18.36752
G1 X113.042 Y98.66 E18.43449
M204 S5000
M205 X30 Y30
G0 F1800 X118.317 Y101.983
M204 S500
M205 X20 Y20
G1 F1200 X118.016 Y101.682 E18.44378
M204 S5000
M205 X30 Y30
G0 F1800 X115.888 Y100.049
M204 S500
M205 X20 Y20
G1 F1200 X119.95 Y104.111 E18.56916
G1 X120.011 Y104.172
M204 S5000
M205 X30 Y30
G0 F1800 X120.364 Y105.02
M204 S500
M205 X20 Y20
G1 F1200 X114.979 Y99.635 E18.73539
G1 X114.918 Y99.574
M204 S5000
M205 X30 Y30
G0 F1800 X114.134 Y99.284
M204 S500
M205 X20 Y20
G1 F1200 X120.715 Y105.865 E18.93853
G1 X120.776 Y105.926
M204 S5000
M205 X30 Y30
G0 F1800 X121.066 Y106.712
M204 S500
M205 X20 Y20
G1 F1200 X113.287 Y98.933 E19.17865
G1 X113.226 Y98.872
M204 S5000
M205 X30 Y30
G0 F1800 X112.624 Y98.765
M204 S500
M205 X20 Y20
G1 F1200 X121.234 Y107.375 E19.44443
G1 X121.295 Y107.436
M204 S5000
M205 X30 Y30
G0 F1800 X121.309 Y107.945
M204 S500
M205 X20 Y20
G1 F1200 X112.054 Y98.69 E19.73011
G1 X111.993 Y98.629
M204 S5000
M205 X30 Y30
G0 F1800 X111.485 Y98.615
M204 S500
M205 X20 Y20
G1 F1200 X121.384 Y108.514 E20.03567
G1 X121.445 Y108.575
M204 S5000
M205 X30 Y30
G0 F1800 X121.459 Y109.084
M204 S500
M205 X20 Y20
G1 F1200 X110.915 Y98.54 E20.36114
G1 X110.854 Y98.479
M204 S5000
M205 X30 Y30
G0 F1800 X110.346 Y98.466
M204 S500
M205 X20 Y20
G1 F1200 X121.533 Y109.653 E20.70646
G1 X121.594 Y109.714
M204 S5000
M205 X30 Y30
G0 F1800 X121.556 Y110.172
M204 S500
M205 X20 Y20
G1 F1200 X109.827 Y98.443 E21.06851
G1 X109.766 Y98.382
M204 S5000
M205 X30 Y30
G0 F1800 X109.39 Y98.5
M204 S500
M205 X20 Y20
G1 F1200 X121.499 Y110.609 E21.44229
G1 X121.56 Y110.67
M204 S5000
M205 X30 Y30
G0 F1800 X121.442 Y111.047
M204 S500
M205 X20 Y20
G1 F1200 X108.952 Y98.557 E21.82784
G1 X108.891 Y98.496
M204 S5000
M205 X30 Y30
G0 F1800 X108.514 Y98.615
M204 S500
M205 X20 Y20
G1 F1200 X121.384 Y111.485 E22.22511
G1 X121.445 Y111.546
M204 S5000
M205 X30 Y30
G0 F1800 X121.326 Y111.922
M204 S500
M205 X20 Y20
G1 F1200 X108.077 Y98.673 E22.63408
G1 X108.016 Y98.612
M204 S5000
M205 X30 Y30
G0 F1800 X107.64 Y98.73
M204 S500
M205 X20 Y20
G1 F1200 X121.269 Y112.359 E23.05478
G1 X121.33 Y112.42
M204 S5000
M205 X30 Y30
G0 F1800 X121.212 Y112.797
M204 S500
M205 X20 Y20
G1 F1200 X107.202 Y98.787 E23.48724
G1 X107.141 Y98.726
M204 S5000
M205 X30 Y30
G0 F1800 X106.811 Y98.891
M204 S500
M205 X20 Y20
G1 F1200 X121.108 Y113.188 E23.92856
G1 X121.169 Y113.249
M204 S5000
M205 X30 Y30
G0 F1800 X120.963 Y113.538
M204 S500
M205 X20 Y20
G1 F1200 X106.461 Y99.036 E24.3762
G1 X106.4 Y98.975
M204 S5000
M205 X30 Y30
G0 F1800 X106.111 Y99.182
M204 S500
M205 X20 Y20
G1 F1200 X120.817 Y113.888 E24.83015
G1 X120.878 Y113.949
M204 S5000
M205 X30 Y30
G0 F1800 X120.672 Y114.238
M204 S500
M205 X20 Y20
G1 F1200 X105.761 Y99.327 E25.29042
G1 X105.7 Y99.266
M204 S5000
M205 X30 Y30
G0 F1800 X105.411 Y99.472
M204 S500
M205 X20 Y20
G1 F1200 X120.527 Y114.588 E25.75702
G1 X120.588 Y114.649
M204 S5000
M205 X30 Y30
G0 F1800 X120.382 Y114.938
M204 S500
M205 X20 Y20
G1 F1200 X105.062 Y99.617 E26.22993
