;FLAVOR:Marlin
;TIME:5924
;Filament used: 5.15038m
;Layer height: 0.2
;Generated with Cura_SteamEngine 3.4.1
M190 S60
M104 S200
M109 S200
M82 ;absolute extrusion mode
;start gcode
;Basic settings: Layer height: 0.2 Walls: 1.2 Fill: {fill_density}
;Print time: 01:38:45
;Filament used: [5.15]m [15.361253203124999]g
;Filament cost: [0]
;M190 S60 ;Uncomment to add your own bed temperature line
;M109 S200 ;Uncomment to add your own temperature line
G21        ;metric values
G90        ;absolute positioning
M82        ;set extruder to absolute mode
M107       ;start with the fan off

G28 X0 Y0  ;move X/Y to min endstops
G28 Z0     ;move Z to min endstops

G1 Z15.0 F{travel_speed} ;move the platform down 15mm

G92 E0                  ;zero the extruded length
G1 F200 E3              ;extrude 3mm of feed stock
G92 E0                  ;zero the extruded length again
G1 F{travel_speed}
;Put printing message on LCD screen
M117 Printing...
G92 E0
G1 F4200 E-7
;LAYER_COUNT:26
;LAYER:0
M107
M204 S5000
M205 X30 Y30
G0 F1800 X49.788 Y70.952 Z0.15
M204 S500
M205 X20 Y20
;TYPE:SKIRT
G1 F4200 E0
G1 F1200 X50.488 Y70.463 E0.0213
G1 X51.7 Y69.731 E0.05662
G1 X52.558 Y69.297 E0.08061
G1 X54.143 Y68.64 E0.12341
G1 X55.092 Y68.331 E0.1483
G1 X56.782 Y67.923 E0.19167
G1 X57.786 Y67.763 E0.21703
G1 X59.503 Y67.629 E0.25999
G1 X60.001 Y67.61 E0.27242
G1 X148.549 Y67.61 E2.48126
G1 X149.415 Y67.669 E2.50291
G1 X150.66 Y67.839 E2.53426
G1 X151.362 Y67.975 E2.5521
G1 X152.109 Y68.214 E2.57166
G1 X153.284 Y68.67 E2.6031
G1 X153.936 Y68.965 E2.62095
G1 X154.829 Y69.531 E2.64733
G1 X155.879 Y70.325 E2.68016
G1 X156.425 Y70.788 E2.69802
G1 X156.927 Y71.323 E2.71632
G1 X160.047 Y75.051 E2.83759
G1 X163.671 Y79.026 E2.97177
G1 X165.472 Y80.842 E3.03557
G1 X169.395 Y84.473 E3.16891
G1 X173.403 Y87.796 E3.29879
G1 X173.927 Y88.283 E3.31663
G1 X174.181 Y88.563 E3.32606
G1 X174.998 Y89.518 E3.35741
G1 X175.432 Y90.086 E3.37524
G1 X175.841 Y90.78 E3.39534
G1 X176.42 Y91.92 E3.42723
G1 X176.708 Y92.575 E3.44508
G1 X176.909 Y93.212 E3.46174
G1 X177.114 Y94.003 E3.48213
G1 X177.255 Y94.705 E3.49999
G1 X177.296 Y95.07 E3.50915
G1 X177.367 Y95.91 E3.53018
G1 X177.39 Y96.45 E3.54366
G1 X177.383 Y135.155 E4.50916
G1 X177.349 Y135.812 E4.52557
G1 X177.154 Y137.698 E4.57287
G1 X177 Y138.581 E4.59523
G1 X176.663 Y139.939 E4.63013
G1 X176.365 Y140.845 E4.65392
G1 X175.709 Y142.43 E4.69672
G1 X175.398 Y143.075 E4.71458
G1 X175.176 Y143.448 E4.72541
G1 X174.04 Y145.212 E4.77774
G1 X173.492 Y145.942 E4.80051
G1 X172.604 Y146.965 E4.83431
G1 X171.933 Y147.632 E4.85791
G1 X170.64 Y148.739 E4.90037
G1 X170.072 Y149.173 E4.9182
G1 X169.706 Y149.403 E4.92898
G1 X167.881 Y150.469 E4.9817
G1 X166.917 Y150.929 E5.00835
G1 X165.341 Y151.525 E5.05038
G1 X164.384 Y151.804 E5.07524
G1 X162.697 Y152.156 E5.11823
G1 X161.747 Y152.281 E5.14214
G1 X159.795 Y152.39 E5.1909
G1 X159.435 Y152.4 E5.19989
G1 X59.436 Y152.356 E7.69437
G1 X58.693 Y152.312 E7.71294
G1 X57.168 Y152.133 E7.75124
G1 X56.374 Y151.989 E7.77137
G1 X55.059 Y151.663 E7.80517
G1 X54.375 Y151.452 E7.82302
G1 X54.014 Y151.306 E7.83274
G1 X52.114 Y150.467 E7.88455
G1 X51.185 Y149.961 E7.91094
G1 X49.757 Y149.023 E7.95356
G1 X49.077 Y148.508 E7.97483
G1 X48.043 Y147.611 E8.00898
G1 X47.299 Y146.848 E8.03556
G1 X46.007 Y145.281 E8.08623
G1 X45.466 Y144.518 E8.10956
G1 X44.73 Y143.299 E8.14508
G1 X44.298 Y142.444 E8.16898
G1 X43.637 Y140.851 E8.212
G1 X43.4 Y140.176 E8.22984
G1 X43.297 Y139.77 E8.24029
G1 X42.859 Y137.774 E8.29127
G1 X42.725 Y136.833 E8.31498
G1 X42.62 Y135.278 E8.35386
G1 X42.605 Y134.845 E8.36466
G1 X42.617 Y84.844 E9.61194
G1 X42.652 Y84.175 E9.62865
G1 X42.854 Y82.26 E9.67669
G1 X43.045 Y81.247 E9.7024
G1 X43.491 Y79.612 E9.74468
G1 X43.771 Y78.801 E9.76608
G1 X44.317 Y77.511 E9.80102
G1 X44.755 Y76.661 E9.82488
G1 X45.652 Y75.198 E9.86769
G1 X46.059 Y74.61 E9.88552
G1 X46.343 Y74.27 E9.89657
G1 X47.76 Y72.69 E9.94952
G1 X48.516 Y71.974 E9.97549
G1 X49.788 Y70.952 E10.01619
M204 S5000
M205 X30 Y30
G0 F1800 X50.039 Y71.264
M204 S500
M205 X20 Y20
G1 F1200 X50.695 Y70.805 E10.03617
G1 X51.907 Y70.073 E10.07149
G1 X52.711 Y69.666 E10.09396
G1 X54.296 Y69.009 E10.13676
G1 X55.186 Y68.72 E10.16011
G1 X56.876 Y68.312 E10.20348
G1 X57.817 Y68.162 E10.22724
G1 X59.534 Y68.028 E10.27021
G1 X60.001 Y68.01 E10.28186
G1 X148.549 Y68.01 E12.4907
G1 X149.361 Y68.065 E12.511
G1 X150.606 Y68.235 E12.54235
G1 X151.285 Y68.368 E12.55961
G1 X151.965 Y68.586 E12.57742
G1 X153.14 Y69.042 E12.60886
G1 X153.77 Y69.33 E12.62614
G1 X154.588 Y69.85 E12.65032
G1 X155.638 Y70.644 E12.68316
G1 X156.165 Y71.093 E12.70043
G1 X156.621 Y71.58 E12.71707
G1 X159.751 Y75.321 E12.83875
G1 X163.385 Y79.306 E12.97328
G1 X165.186 Y81.123 E13.0371
G1 X169.133 Y84.775 E13.17124
G1 X173.148 Y88.104 E13.30134
G1 X173.877 Y88.823 E13.32688
G1 X174.694 Y89.778 E13.35823
G1 X175.113 Y90.329 E13.3755
G1 X175.485 Y90.961 E13.39379
G1 X176.064 Y92.101 E13.42569
G1 X176.341 Y92.736 E13.44297
G1 X176.522 Y93.313 E13.45805
G1 X176.727 Y94.104 E13.47844
G1 X176.898 Y95.104 E13.50375
G1 X176.969 Y95.944 E13.52477
G1 X176.99 Y96.45 E13.53741
G1 X176.983 Y135.155 E14.50291
G1 X176.951 Y135.771 E14.51829
G1 X176.756 Y137.657 E14.56559
G1 X176.611 Y138.485 E14.58656
G1 X176.274 Y139.843 E14.62146
G1 X175.995 Y140.693 E14.64378
G1 X175.339 Y142.278 E14.68657
G1 X175.038 Y142.901 E14.70383
G1 X174.839 Y143.232 E14.71346
G1 X173.703 Y144.996 E14.7658
G1 X173.19 Y145.68 E14.78713
G1 X172.302 Y146.703 E14.82092
G1 X171.673 Y147.328 E14.84304
G1 X170.38 Y148.435 E14.8855
G1 X169.829 Y148.854 E14.90277
G1 X169.504 Y149.058 E14.91234
G1 X167.679 Y150.124 E14.96506
G1 X166.775 Y150.555 E14.99004
G1 X165.199 Y151.151 E15.03208
G1 X164.303 Y151.413 E15.05536
G1 X162.616 Y151.765 E15.09835
G1 X161.725 Y151.882 E15.12077
G1 X159.773 Y151.991 E15.16954
G1 X159.435 Y152 E15.17797
G1 X59.436 Y151.956 E17.67246
G1 X58.74 Y151.915 E17.68985
G1 X57.215 Y151.736 E17.72815
G1 X56.47 Y151.601 E17.74704
G1 X55.155 Y151.275 E17.78083
G1 X54.175 Y150.94 E17.80667
G1 X52.275 Y150.101 E17.85848
G1 X51.405 Y149.627 E17.88319
G1 X49.977 Y148.689 E17.92581
G1 X49.339 Y148.206 E17.94577
G1 X48.305 Y147.309 E17.97992
G1 X47.608 Y146.594 E18.00483
G1 X46.316 Y145.027 E18.05549
G1 X45.809 Y144.311 E18.07738
G1 X45.073 Y143.092 E18.1129
G1 X44.667 Y142.291 E18.1353
G1 X44.006 Y140.698 E18.17832
G1 X43.778 Y140.044 E18.1956
G1 X43.687 Y139.684 E18.20486
G1 X43.249 Y137.688 E18.25584
G1 X43.124 Y136.806 E18.27806
G1 X43.019 Y135.251 E18.31693
G1 X43.005 Y134.846 E18.32704
G1 X43.017 Y84.845 E19.57432
G1 X43.05 Y84.217 E19.59001
G1 X43.252 Y82.302 E19.63805
G1 X43.43 Y81.352 E19.66216
G1 X43.876 Y79.717 E19.70443
G1 X44.14 Y78.957 E19.7245
G1 X44.686 Y77.667 E19.75944
G1 X45.096 Y76.87 E19.7818
G1 X45.993 Y75.407 E19.82461
G1 X46.388 Y74.838 E19.84189
G1 X46.641 Y74.537 E19.8517
G1 X48.058 Y72.957 E19.90464
G1 X48.767 Y72.286 E19.92899
G1 X50.039 Y71.264 E19.96969
M204 S5000
M205 X30 Y30
G0 F1800 X50.29 Y71.576
M204 S500
M205 X20 Y20
G1 F1200 X50.902 Y71.147 E19.98834
G1 X52.114 Y70.415 E20.02366
G1 X52.865 Y70.036 E20.04464
G1 X54.45 Y69.379 E20.08744
G1 X55.28 Y69.108 E20.10922
G1 X56.97 Y68.7 E20.15259
G1 X57.848 Y68.561 E20.17476
G1 X59.565 Y68.427 E20.21772
G1 X60.001 Y68.41 E20.22861
G1 X148.549 Y68.41 E22.43745
G1 X149.307 Y68.461 E22.4564
G1 X150.552 Y68.631 E22.48774
G1 X151.208 Y68.761 E22.50443
G1 X151.82 Y68.959 E22.52047
G1 X152.995 Y69.415 E22.55191
G1 X153.603 Y69.694 E22.5686
G1 X154.347 Y70.169 E22.59062
G1 X155.397 Y70.963 E22.62346
G1 X155.905 Y71.398 E22.64014
G1 X156.314 Y71.836 E22.65509
G1 X159.453 Y75.587 E22.7771
G1 X163.089 Y79.575 E22.91172
G1 X164.914 Y81.415 E22.97637
G1 X168.878 Y85.084 E23.1111
G1 X172.892 Y88.412 E23.24117
G1 X173.573 Y89.083 E23.26502
G1 X174.39 Y90.038 E23.29637
G1 X174.794 Y90.571 E23.31306
G1 X175.128 Y91.142 E23.32956
G1 X175.707 Y92.282 E23.36145
G1 X175.974 Y92.896 E23.37815
G1 X176.135 Y93.413 E23.39166
G1 X176.34 Y94.204 E23.41204
G1 X176.499 Y95.137 E23.43565
G1 X176.57 Y95.977 E23.45668
G1 X176.59 Y96.45 E23.46849
G1 X176.583 Y135.155 E24.43399
G1 X176.553 Y135.73 E24.44835
G1 X176.358 Y137.616 E24.49565
G1 X176.223 Y138.389 E24.51523
G1 X175.886 Y139.747 E24.55013
G1 X175.625 Y140.54 E24.57095
G1 X174.969 Y142.125 E24.61375
G1 X174.677 Y142.726 E24.63041
G1 X174.503 Y143.015 E24.63883
G1 X173.367 Y144.779 E24.69117
G1 X172.888 Y145.418 E24.71109
G1 X172 Y146.441 E24.74488
G1 X171.413 Y147.024 E24.76552
G1 X170.12 Y148.131 E24.80798
G1 X169.587 Y148.535 E24.82466
G1 X169.302 Y148.713 E24.83304
G1 X167.477 Y149.779 E24.88576
G1 X166.634 Y150.181 E24.90906
G1 X165.058 Y150.777 E24.95109
G1 X164.221 Y151.021 E24.97284
G1 X162.534 Y151.373 E25.01583
G1 X161.702 Y151.482 E25.03676
G1 X159.75 Y151.591 E25.08553
G1 X159.436 Y151.6 E25.09337
G1 X59.437 Y151.556 E27.58785
G1 X58.786 Y151.518 E27.60412
G1 X57.261 Y151.339 E27.64242
G1 X56.567 Y151.212 E27.66002
G1 X55.252 Y150.886 E27.69382
G1 X54.337 Y150.574 E27.71793
G1 X52.437 Y149.735 E27.76974
G1 X51.625 Y149.293 E27.7928
G1 X50.197 Y148.355 E27.83542
G1 X49.601 Y147.904 E27.85407
G1 X48.567 Y147.007 E27.88821
G1 X47.916 Y146.339 E27.91148
G1 X46.624 Y144.772 E27.96214
G1 X46.151 Y144.104 E27.98256
G1 X45.415 Y142.885 E28.01808
G1 X45.037 Y142.137 E28.03899
G1 X44.376 Y140.544 E28.08201
G1 X44.078 Y139.598 E28.10675
G1 X43.64 Y137.602 E28.15773
G1 X43.523 Y136.779 E28.17846
G1 X43.418 Y135.224 E28.21734
G1 X43.405 Y134.846 E28.22678
G1 X43.417 Y84.845 E29.47406
G1 X43.448 Y84.259 E29.48869
G1 X43.65 Y82.344 E29.53673
G1 X43.816 Y81.457 E29.55924
G1 X44.262 Y79.822 E29.60152
G1 X44.508 Y79.113 E29.62024
G1 X45.054 Y77.823 E29.65518
G1 X45.437 Y77.079 E29.67605
G1 X46.334 Y75.616 E29.71886
G1 X46.717 Y75.067 E29.73556
G1 X46.939 Y74.804 E29.74414
G1 X48.356 Y73.224 E29.79709
G1 X49.018 Y72.598 E29.81981
G1 X50.29 Y71.576 E29.86052
M204 S5000
M205 X30 Y30
G0 F1800 X50.54 Y71.887
M204 S500
M205 X20 Y20
G1 F1200 X51.109 Y71.49 E29.87782
G1 X52.321 Y70.758 E29.91314
G1 X53.018 Y70.405 E29.93263
G1 X54.603 Y69.748 E29.97543
G1 X55.374 Y69.497 E29.99566
G1 X57.064 Y69.089 E30.03903
G1 X57.879 Y68.96 E30.05961
G1 X59.596 Y68.826 E30.10257
G1 X60.001 Y68.81 E30.11268
G1 X148.549 Y68.81 E32.32152
G1 X149.253 Y68.858 E32.33912
G1 X150.498 Y69.028 E32.37047
G1 X151.13 Y69.154 E32.38654
G1 X151.675 Y69.332 E32.40085
G1 X152.85 Y69.788 E32.43229
G1 X153.436 Y70.058 E32.44838
G1 X154.105 Y70.488 E32.46822
G1 X155.155 Y71.282 E32.50106
G1 X155.645 Y71.702 E32.51716
G1 X156.007 Y72.093 E32.53045
G1 X159.145 Y75.843 E32.65242
G1 X162.804 Y79.855 E32.78787
G1 X164.641 Y81.708 E32.85296
G1 X168.605 Y85.377 E32.9877
G1 X172.637 Y88.72 E33.11835
G1 X173.269 Y89.343 E33.14049
G1 X174.086 Y90.298 E33.17184
G1 X174.474 Y90.813 E33.18792
G1 X174.771 Y91.323 E33.20265
G1 X175.35 Y92.463 E33.23454
G1 X175.606 Y93.055 E33.25063
G1 X175.748 Y93.513 E33.26259
G1 X175.953 Y94.304 E33.28298
G1 X176.101 Y95.171 E33.30492
G1 X176.172 Y96.011 E33.32594
G1 X176.19 Y96.45 E33.3369
G1 X176.183 Y135.155 E34.30241
G1 X176.155 Y135.689 E34.31574
G1 X175.96 Y137.575 E34.36304
G1 X175.835 Y138.292 E34.3812
G1 X175.498 Y139.65 E34.4161
G1 X175.256 Y140.387 E34.43545
G1 X174.6 Y141.972 E34.47824
G1 X174.167 Y142.798 E34.5015
G1 X173.031 Y144.562 E34.55384
G1 X172.586 Y145.156 E34.57236
G1 X171.698 Y146.179 E34.60615
G1 X171.153 Y146.72 E34.6253
G1 X169.86 Y147.827 E34.66777
G1 X169.101 Y148.367 E34.691
G1 X167.276 Y149.433 E34.74372
G1 X166.492 Y149.807 E34.76539
G1 X164.916 Y150.403 E34.80742
G1 X164.139 Y150.629 E34.82761
G1 X162.452 Y150.981 E34.8706
G1 X161.68 Y151.083 E34.89002
G1 X159.728 Y151.192 E34.93879
G1 X159.436 Y151.2 E34.94608
G1 X59.437 Y151.156 E37.44056
G1 X58.833 Y151.121 E37.45565
G1 X57.308 Y150.942 E37.49396
G1 X56.663 Y150.824 E37.51031
G1 X55.348 Y150.498 E37.54411
G1 X54.498 Y150.208 E37.56651
G1 X52.598 Y149.369 E37.61832
G1 X51.844 Y148.958 E37.63975
G1 X50.416 Y148.02 E37.68236
G1 X49.863 Y147.602 E37.69966
G1 X48.829 Y146.705 E37.7338
G1 X48.225 Y146.085 E37.75539
G1 X46.933 Y144.518 E37.80606
G1 X46.493 Y143.898 E37.82502
G1 X45.757 Y142.679 E37.86054
G1 X45.406 Y141.984 E37.87996
G1 X44.745 Y140.391 E37.92299
G1 X44.469 Y139.513 E37.94595
G1 X44.031 Y137.517 E37.99692
G1 X43.922 Y136.752 E38.0162
G1 X43.817 Y135.197 E38.05507
G1 X43.805 Y134.846 E38.06384
G1 X43.817 Y84.845 E39.31112
G1 X43.846 Y84.301 E39.3247
G1 X44.048 Y82.386 E39.37274
G1 X44.202 Y81.563 E39.39363
G1 X44.648 Y79.928 E39.4359
G1 X44.876 Y79.269 E39.4533
G1 X45.422 Y77.979 E39.48824
G1 X45.778 Y77.288 E39.50763
G1 X46.675 Y75.825 E39.55044
G1 X47.237 Y75.071 E39.5739
G1 X48.654 Y73.491 E39.62684
G1 X49.268 Y72.909 E39.64794
G1 X50.54 Y71.887 E39.68864
M204 S5000
M205 X30 Y30
G1 F4200 E32.68864
G0 F1800 X54.637 Y74.678
G0 X55.253 Y75.686
G0 X57.214 Y75.3
M204 S500
M205 X20 Y20
;TYPE:WALL-INNER
G1 F4200 E39.68864
G1 F1200 X56.926 Y75.458 E39.69581
G1 X55.534 Y76.221 E39.73046
G1 X54.549 Y76.762 E39.75499
G1 X54.216 Y77.024 E39.76424
G1 X53.267 Y77.772 E39.79061
G1 X53.041 Y78.021 E39.79795
G1 X52.168 Y78.98 E39.82626
G1 X52.033 Y79.19 E39.83171
G1 X51.173 Y80.525 E39.86637
G1 X50.95 Y80.871 E39.87536
G1 X51.055 Y80.981 E39.87868
G1 X51.9 Y81.868 E39.90541
G1 X57.214 Y78.8 E40.03935
G1 X57.214 Y75.393 E40.11212
G1 X57.214 Y75.371
G1 X57.214 Y75.3
M204 S5000
M205 X30 Y30
G0 F1800 X57.78 Y78.618
G0 X65.964 Y83.852
M204 S500
M205 X20 Y20
G1 F1200 X65.964 Y93.522 E40.32318
G1 X74.339 Y98.357 E40.53426
G1 X82.714 Y93.522 E40.74534
G1 X82.714 Y83.852 E40.9564
G1 X74.339 Y79.017 E41.16748
G1 X65.964 Y83.852 E41.37856
M204 S5000
M205 X30 Y30
G0 F1800 X73.898 Y78.618
G0 X74.214 Y75.125
M204 S500
M205 X20 Y20
G1 F1200 X60.029 Y75.125 E41.68817
G1 X59.979 Y75.125 E41.68926
G1 X59.084 Y75.167 E41.70882
G1 X58.449 Y75.255 E41.72281
G1 X57.464 Y75.393 E41.74445
G1 X57.464 Y78.8 E41.79757
G1 X65.839 Y83.635 E42.00865
G1 X74.214 Y78.8 E42.15942
G1 X74.214 Y75.125 E42.23963
M204 S5000
M205 X30 Y30
G0 F1800 X74.464 Y75.125
M204 S500
M205 X20 Y20
G1 F1200 X74.464 Y78.8 E42.29693
G1 X82.839 Y83.635 E42.4477
G1 X91.214 Y78.8 E42.65877
G1 X91.214 Y75.125 E42.73899
G1 X74.464 Y75.125 E43.10459
M204 S5000
M205 X30 Y30
G0 F1800 X74.78 Y78.618
G0 X82.964 Y83.852
M204 S500
M205 X20 Y20
G1 F1200 X82.964 Y93.522 E43.25535
G1 X91.339 Y98.357 E43.46643
G1 X99.714 Y93.522 E43.6775
G1 X99.714 Y83.852 E43.88857
G1 X91.339 Y79.017 E44.09965
G1 X82.964 Y83.852 E44.25042
M204 S5000
M205 X30 Y30
G0 F1800 X90.898 Y78.618
G0 X91.464 Y75.125
M204 S500
M205 X20 Y20
G1 F1200 X91.464 Y78.8 E44.30771
G1 X99.839 Y83.635 E44.45848
G1 X108.214 Y78.8 E44.66956
G1 X108.214 Y75.125 E44.74977
G1 X91.464 Y75.125 E45.11537
M204 S5000
M205 X30 Y30
G0 F1800 X91.78 Y78.618
G0 X99.964 Y83.852
M204 S500
M205 X20 Y20
G1 F1200 X99.964 Y93.522 E45.26614
G1 X108.339 Y98.357 E45.47721
G1 X116.714 Y93.522 E45.68829
G1 X116.714 Y83.852 E45.89936
G1 X108.339 Y79.017 E46.11043
G1 X99.964 Y83.852 E46.2612
M204 S5000
M205 X30 Y30
G0 F1800 X107.898 Y78.618
G0 X108.464 Y75.125
M204 S500
M205 X20 Y20
G1 F1200 X108.464 Y78.8 E46.3185
G1 X116.839 Y83.635 E46.46927
G1 X125.214 Y78.8 E46.68034
G1 X125.214 Y75.125 E46.76056
G1 X108.464 Y75.125 E47.12616
M204 S5000
M205 X30 Y30
G0 F1800 X108.78 Y78.618
G0 X116.964 Y83.852
M204 S500
M205 X20 Y20
G1 F1200 X116.964 Y93.522 E47.27692
G1 X125.339 Y98.357 E47.488
G1 X133.714 Y93.522 E47.69908
G1 X133.714 Y83.852 E47.91014
G1 X125.339 Y79.017 E48.12122
G1 X116.964 Y83.852 E48.27199
M204 S5000
M205 X30 Y30
G0 F1800 X124.898 Y78.618
G0 X125.464 Y75.125
M204 S500
M205 X20 Y20
G1 F1200 X125.464 Y78.8 E48.32928
G1 X133.839 Y83.635 E48.48005
G1 X142.214 Y78.8 E48.69113
G1 X142.214 Y75.125 E48.77134
G1 X125.464 Y75.125 E49.13695
M204 S5000
M205 X30 Y30
G0 F1800 X125.78 Y78.618
G0 X133.964 Y83.852
M204 S500
M205 X20 Y20
G1 F1200 X133.964 Y93.522 E49.28771
G1 X142.339 Y98.357 E49.49878
G1 X150.714 Y93.522 E49.70986
G1 X150.714 Y83.852 E49.92093
G1 X142.339 Y79.017 E50.13201
G1 X133.964 Y83.852 E50.28277
M204 S5000
M205 X30 Y30
G0 F1800 X141.898 Y78.618
