;FLAVOR:Marlin
;TIME:1999
;Filament used: 1.5471m
;Layer height: 0.2
;Generated with Cura_SteamEngine 3.4.1
M190 S60
M104 S200
M109 S200
M82 ;absolute extrusion mode
;start gcode
;Basic settings: Layer height: 0.2 Walls: 1.2 Fill: {fill_density}
;Print time: 00:33:19
;Filament used: [1.55]m [4.614301259765625]g
;Filament cost: [0]
;M190 S60 ;Uncomment to add your own bed temperature line
;M109 S200 ;Uncomment to add your own temperature line
G21        ;metric values
G90        ;absolute positioning
M82        ;set extruder to absolute mode
M107       ;start with the fan off

G28 X0 Y0  ;move X/Y to min endstops
G28 Z0     ;move Z to min endstops

G1 Z15.0 F{travel_speed} ;move the platform down 15mm

G92 E0                  ;zero the extruded length
G1 F200 E3              ;extrude 3mm of feed stock
G92 E0                  ;zero the extruded length again
G1 F{travel_speed}
;Put printing message on LCD screen
M117 Printing...
G92 E0
G1 F4200 E-7
;LAYER_COUNT:101
;LAYER:0
M107
M204 S5000
M205 X30 Y30
G0 F1800 X95.473 Y95.494 Z0.15
M204 S500
M205 X20 Y20
;TYPE:SKIRT
G1 F4200 E0
G1 F1200 X96.005 Y95.016 E0.01784
G1 X96.587 Y94.601 E0.03567
G1 X97.211 Y94.252 E0.05351
G1 X98.077 Y93.907 E0.07676
G1 X104.676 Y91.817 E0.24943
G1 X106.068 Y91.315 E0.28634
G1 X106.753 Y91.11 E0.30418
G1 X107.457 Y90.984 E0.32202
G1 X108.207 Y90.936 E0.34077
G1 X110.789 Y90.924 E0.40518
G1 X111.504 Y90.961 E0.42304
G1 X112.209 Y91.077 E0.44086
G1 X112.712 Y91.21 E0.45384
G1 X118.689 Y93.061 E0.60992
G1 X121.594 Y93.812 E0.68477
G1 X122.275 Y94.029 E0.7026
G1 X122.928 Y94.321 E0.72044
G1 X123.544 Y94.684 E0.73828
G1 X124.116 Y95.114 E0.75613
G1 X124.636 Y95.605 E0.77397
G1 X125.099 Y96.15 E0.79181
G1 X125.497 Y96.744 E0.80964
G1 X125.827 Y97.379 E0.82749
G1 X126.123 Y98.173 E0.84863
G1 X127.359 Y102.304 E0.95619
G1 X128.71 Y106.204 E1.05915
G1 X128.906 Y106.892 E1.077
G1 X129.024 Y107.597 E1.09483
G1 X129.062 Y108.262 E1.11144
G1 X129.076 Y110.779 E1.17423
G1 X129.04 Y111.494 E1.19209
G1 X128.924 Y112.2 E1.20994
G1 X128.764 Y112.79 E1.22519
G1 X127.705 Y116.056 E1.31083
G1 X126.164 Y121.681 E1.45632
G1 X125.937 Y122.36 E1.47418
G1 X125.635 Y123.008 E1.49201
G1 X125.263 Y123.619 E1.50986
G1 X124.825 Y124.185 E1.52771
G1 X124.327 Y124.698 E1.54554
G1 X123.775 Y125.153 E1.56339
G1 X123.175 Y125.543 E1.58124
G1 X122.536 Y125.863 E1.59907
G1 X121.865 Y126.111 E1.61691
G1 X121.17 Y126.281 E1.63476
G1 X120.461 Y126.374 E1.6526
G1 X119.991 Y126.391 E1.66433
G1 X100.009 Y126.39 E2.16278
G1 X99.295 Y126.35 E2.18062
G1 X98.589 Y126.231 E2.19848
G1 X97.902 Y126.033 E2.21631
G1 X97.241 Y125.76 E2.23415
G1 X96.614 Y125.415 E2.25201
G1 X96.03 Y125.003 E2.26983
G1 X95.495 Y124.527 E2.2877
G1 X95.017 Y123.995 E2.30554
G1 X94.602 Y123.413 E2.32337
G1 X94.253 Y122.789 E2.3412
G1 X93.977 Y122.129 E2.35905
G1 X93.776 Y121.442 E2.37691
G1 X93.653 Y120.738 E2.39473
G1 X93.609 Y119.99 E2.41342
G1 X93.61 Y100.008 E2.91188
G1 X93.65 Y99.294 E2.92972
G1 X93.769 Y98.588 E2.94758
G1 X93.967 Y97.901 E2.96541
G1 X94.24 Y97.24 E2.98325
G1 X94.585 Y96.613 E3.0011
G1 X94.997 Y96.029 E3.01893
G1 X95.473 Y95.494 E3.03679
M204 S5000
M205 X30 Y30
G0 F1800 X95.866 Y95.669
M204 S500
M205 X20 Y20
G1 F1200 X96.394 Y95.22 E3.05408
G1 X96.97 Y94.835 E3.07137
G1 X97.586 Y94.519 E3.08864
G1 X98.198 Y94.288 E3.10495
G1 X104.806 Y92.195 E3.27786
G1 X106.204 Y91.691 E3.31493
G1 X106.868 Y91.494 E3.33221
G1 X107.55 Y91.375 E3.34948
G1 X108.209 Y91.336 E3.36595
G1 X110.791 Y91.324 E3.43035
G1 X111.483 Y91.361 E3.44764
G1 X112.165 Y91.477 E3.4649
G1 X112.594 Y91.593 E3.47598
G1 X118.558 Y93.44 E3.63173
G1 X121.494 Y94.199 E3.70737
G1 X122.153 Y94.411 E3.72464
G1 X122.784 Y94.697 E3.74192
G1 X123.377 Y95.054 E3.75919
G1 X123.925 Y95.477 E3.77646
G1 X124.421 Y95.96 E3.79373
G1 X124.858 Y96.498 E3.81102
G1 X125.23 Y97.082 E3.82829
G1 X125.532 Y97.705 E3.84556
G1 X125.74 Y98.287 E3.86098
G1 X126.982 Y102.436 E3.96901
G1 X128.332 Y106.335 E4.07194
G1 X128.52 Y107.001 E4.0892
G1 X128.631 Y107.685 E4.10649
G1 X128.662 Y108.265 E4.12098
G1 X128.676 Y110.782 E4.18376
G1 X128.64 Y111.473 E4.20103
G1 X128.524 Y112.156 E4.21831
G1 X128.383 Y112.667 E4.23153
G1 X127.323 Y115.934 E4.31721
G1 X125.778 Y121.576 E4.46313
G1 X125.557 Y122.232 E4.4804
G1 X125.261 Y122.858 E4.49767
G1 X124.896 Y123.447 E4.51496
G1 X124.465 Y123.989 E4.53223
G1 X123.975 Y124.478 E4.5495
G1 X123.431 Y124.907 E4.56678
G1 X122.842 Y125.271 E4.58405
G1 X122.214 Y125.564 E4.60134
G1 X121.557 Y125.783 E4.61861
G1 X120.879 Y125.925 E4.63589
G1 X119.991 Y125.991 E4.65811
G1 X100.009 Y125.99 E5.15656
G1 X99.317 Y125.95 E5.17385
G1 X98.635 Y125.831 E5.19112
G1 X97.971 Y125.633 E5.2084
G1 X97.335 Y125.361 E5.22566
G1 X96.734 Y125.017 E5.24293
G1 X96.176 Y124.606 E5.26022
G1 X95.67 Y124.134 E5.27748
G1 X95.221 Y123.606 E5.29477
G1 X94.836 Y123.03 E5.31205
G1 X94.52 Y122.414 E5.32932
G1 X94.278 Y121.765 E5.3466
G1 X94.111 Y121.093 E5.36388
G1 X94.023 Y120.406 E5.38115
G1 X94.009 Y119.99 E5.39154
G1 X94.01 Y100.008 E5.88999
G1 X94.05 Y99.316 E5.90728
G1 X94.169 Y98.634 E5.92455
G1 X94.367 Y97.97 E5.94183
G1 X94.639 Y97.334 E5.95909
G1 X94.983 Y96.733 E5.97636
G1 X95.394 Y96.175 E5.99365
G1 X95.866 Y95.669 E6.01091
M204 S5000
M205 X30 Y30
G0 F1800 X96.259 Y95.85
M204 S500
M205 X20 Y20
G1 F1200 X96.782 Y95.432 E6.02761
G1 X97.35 Y95.08 E6.04428
G1 X97.957 Y94.798 E6.06098
G1 X98.319 Y94.669 E6.07056
G1 X104.928 Y92.575 E6.2435
G1 X106.339 Y92.067 E6.28091
G1 X106.981 Y91.879 E6.2976
G1 X107.641 Y91.768 E6.3143
G1 X108.211 Y91.736 E6.32854
G1 X110.793 Y91.724 E6.39295
G1 X111.461 Y91.761 E6.40963
G1 X112.12 Y91.877 E6.42633
G1 X112.476 Y91.975 E6.43554
G1 X118.452 Y93.826 E6.5916
G1 X121.393 Y94.586 E6.66737
G1 X122.03 Y94.792 E6.68407
G1 X122.638 Y95.072 E6.70077
G1 X123.207 Y95.423 E6.71744
G1 X123.731 Y95.839 E6.73413
G1 X124.202 Y96.315 E6.75084
G1 X124.612 Y96.843 E6.76751
G1 X124.956 Y97.417 E6.78421
G1 X125.23 Y98.027 E6.80089
G1 X125.357 Y98.402 E6.81076
G1 X126.602 Y102.563 E6.91911
G1 X127.954 Y106.466 E7.02214
G1 X128.134 Y107.11 E7.03882
G1 X128.237 Y107.771 E7.05551
G1 X128.262 Y108.267 E7.0679
G1 X128.276 Y110.784 E7.13069
G1 X128.24 Y111.452 E7.14738
G1 X128.124 Y112.111 E7.16407
G1 X128.003 Y112.543 E7.17526
G1 X126.936 Y115.831 E7.26149
G1 X125.392 Y121.47 E7.40733
G1 X125.177 Y122.104 E7.42403
G1 X124.888 Y122.707 E7.44071
G1 X124.529 Y123.272 E7.45741
G1 X124.106 Y123.79 E7.47409
G1 X123.623 Y124.253 E7.49078
G1 X123.089 Y124.656 E7.50747
G1 X122.511 Y124.992 E7.52415
G1 X121.896 Y125.257 E7.54085
G1 X121.255 Y125.447 E7.55753
G1 X120.595 Y125.558 E7.57423
G1 X119.991 Y125.591 E7.58931
G1 X100.009 Y125.59 E8.08777
G1 X99.341 Y125.55 E8.10446
G1 X98.683 Y125.431 E8.12114
G1 X98.043 Y125.234 E8.13784
G1 X97.432 Y124.962 E8.15453
G1 X96.857 Y124.619 E8.17123
G1 X96.328 Y124.21 E8.18791
G1 X95.851 Y123.741 E8.2046
G1 X95.433 Y123.218 E8.2213
G1 X95.081 Y122.65 E8.23797
G1 X94.799 Y122.043 E8.25466
G1 X94.591 Y121.407 E8.27136
G1 X94.461 Y120.751 E8.28804
G1 X94.409 Y119.99 E8.30706
G1 X94.41 Y100.008 E8.80552
G1 X94.45 Y99.34 E8.82221
G1 X94.569 Y98.682 E8.83889
G1 X94.766 Y98.042 E8.8556
G1 X95.038 Y97.431 E8.87228
G1 X95.381 Y96.856 E8.88898
G1 X95.79 Y96.327 E8.90566
G1 X96.259 Y95.85 E8.92235
M204 S5000
M205 X30 Y30
G0 F1800 X96.185 Y96.485
M204 S500
M205 X20 Y20
G1 F1200 X96.651 Y96.039 E8.93844
G1 X97.168 Y95.654 E8.95452
G1 X97.728 Y95.335 E8.97059
G1 X98.44 Y95.051 E8.98972
G1 X105.058 Y92.954 E9.16289
G1 X106.475 Y92.444 E9.20046
G1 X107.094 Y92.263 E9.21655
G1 X107.73 Y92.161 E9.23261
G1 X108.213 Y92.136 E9.24468
G1 X110.795 Y92.124 E9.30909
G1 X111.438 Y92.161 E9.32515
G1 X112.357 Y92.357 E9.34859
G1 X118.334 Y94.208 E9.50468
G1 X121.293 Y94.973 E9.58092
G1 X121.906 Y95.173 E9.597
G1 X122.49 Y95.447 E9.61309
G1 X123.035 Y95.791 E9.62917
G1 X123.533 Y96.2 E9.64524
G1 X123.977 Y96.668 E9.66134
G1 X124.36 Y97.187 E9.67743
G1 X124.676 Y97.749 E9.69351
G1 X124.974 Y98.517 E9.71406
G1 X126.221 Y102.682 E9.82251
G1 X127.576 Y106.596 E9.92583
G1 X127.749 Y107.218 E9.94194
G1 X127.843 Y107.855 E9.958
G1 X127.862 Y108.269 E9.96834
G1 X127.876 Y110.786 E10.03113
G1 X127.84 Y111.43 E10.04722
G1 X127.724 Y112.064 E10.06329
G1 X127.622 Y112.42 E10.07253
G1 X126.555 Y115.71 E10.15881
G1 X125.006 Y121.365 E10.30507
G1 X124.798 Y121.975 E10.32115
G1 X124.515 Y122.554 E10.33722
G1 X124.164 Y123.094 E10.35329
G1 X123.747 Y123.587 E10.3694
G1 X123.274 Y124.024 E10.38546
G1 X122.749 Y124.399 E10.40155
G1 X122.183 Y124.706 E10.41762
G1 X121.583 Y124.941 E10.43369
G1 X120.958 Y125.1 E10.44978
G1 X120.318 Y125.181 E10.46587
G1 X119.991 Y125.191 E10.47403
G1 X100.009 Y125.19 E10.97248
G1 X99.365 Y125.15 E10.98858
G1 X98.732 Y125.031 E11.00465
G1 X98.118 Y124.834 E11.02073
G1 X97.533 Y124.563 E11.03681
G1 X96.986 Y124.221 E11.05291
G1 X96.486 Y123.815 E11.06897
G1 X96.04 Y123.349 E11.08506
G1 X95.655 Y122.832 E11.10114
G1 X95.336 Y122.272 E11.11722
G1 X95.09 Y121.676 E11.1333
G1 X94.919 Y121.054 E11.1494
G1 X94.827 Y120.416 E11.16547
G1 X94.809 Y119.99 E11.17611
G1 X94.81 Y100.008 E11.67456
G1 X94.85 Y99.364 E11.69066
G1 X94.969 Y98.731 E11.70673
G1 X95.166 Y98.117 E11.72281
G1 X95.437 Y97.532 E11.73889
G1 X95.779 Y96.985 E11.75499
G1 X96.185 Y96.485 E11.77105
M204 S5000
M205 X30 Y30
G0 F1800 X106.758 Y99.08
M204 S500
M205 X20 Y20
;TYPE:SUPPORT
G1 F1200 X108.353 Y97.514 E11.82681
G1 X110.744 Y97.514 E11.88646
G1 X112.217 Y98.961 E11.93796
G1 X112.217 Y99.125 E11.94205
G1 X106.758 Y99.125 E12.07823
G1 X106.758 Y99.08 E12.07935
M204 S5000
M205 X30 Y30
G0 F1800 X107.438 Y98.642
M204 S500
M205 X20 Y20
G1 F1200 X111.66 Y98.642 E12.18467
M204 S5000
M205 X30 Y30
G0 F1800 X109.306 Y98.962
M204 S500
M205 X20 Y20
G1 F1200 X109.306 Y97.677 E12.21672
M204 S5000
M205 X30 Y30
G1 F4200 E5.21672
G0 F1800 X120.146 Y99.364
G0 X120.636 Y99.854
G0 X120.875 Y106.967
M204 S500
M205 X20 Y20
G1 F4200 E12.21672
G1 F1200 X120.969 Y106.929 E12.21925
G1 X122.486 Y108.42 E12.27231
G1 X122.486 Y110.74 E12.33019
G1 X120.966 Y112.236 E12.38339
G1 X120.875 Y112.197 E12.38586
G1 X120.875 Y106.967 E12.51632
M204 S5000
M205 X30 Y30
G0 F1800 X121.038 Y109.306
M204 S500
M205 X20 Y20
G1 F1200 X122.323 Y109.306 E12.54837
M204 S5000
M205 X30 Y30
G1 F4200 E5.54837
G0 F1800 X120.64 Y109.306
G0 X119.455 Y109.306
G0 X119.125 Y119.125
M204 S500
M205 X20 Y20
;TYPE:WALL-INNER
G1 F4200 E12.54837
G1 F1200 X100.875 Y119.125 E12.94672
G1 X100.875 Y100.875 E13.34506
G1 X119.125 Y100.875 E13.7434
G1 X119.125 Y119.125 E14.14174
M204 S5000
M205 X30 Y30
G0 F1800 X119.475 Y119.475
M204 S500
M205 X20 Y20
G1 F1200 X100.525 Y119.475 E14.55536
G1 X100.525 Y100.525 E14.96898
G1 X119.475 Y100.525 E15.38261
G1 X119.475 Y119.475 E15.79623
M204 S5000
M205 X30 Y30
G0 F1800 X119.8 Y119.8
M204 S500
M205 X20 Y20
;TYPE:WALL-OUTER
G1 F1200 X100.2 Y119.8 E16.22403
G1 X100.2 Y100.2 E16.65184
G1 X119.8 Y100.2 E17.07965
G1 X119.8 Y119.8 E17.50746
M204 S5000
M205 X30 Y30
G0 F1800 X119.6 Y119.8
G0 X119.405 Y119.405
G0 X118.785 Y118.785
M204 S500
M205 X20 Y20
;TYPE:SKIN
G1 F1200 X101.215 Y118.785 E17.89096
G1 X101.215 Y101.215 E18.27446
G1 X118.785 Y101.215 E18.65796
G1 X118.785 Y118.785 E19.04146
M204 S5000
M205 X30 Y30
G0 F1800 X118.626 Y101.797
M204 S500
M205 X20 Y20
G1 F1200 X118.202 Y101.372 E19.05456
M204 S5000
M205 X30 Y30
G0 F1800 X117.707 Y101.372
M204 S500
M205 X20 Y20
G1 F1200 X118.626 Y102.292 E19.08295
G1 X118.687 Y102.353
M204 S5000
M205 X30 Y30
G0 F1800 X118.626 Y102.787
M204 S500
M205 X20 Y20
G1 F1200 X117.212 Y101.372 E19.12661
G1 X117.151 Y101.311
M204 S5000
M205 X30 Y30
G0 F1800 X116.717 Y101.372
M204 S500
M205 X20 Y20
G1 F1200 X118.626 Y103.282 E19.18555
G1 X118.687 Y103.343
M204 S5000
M205 X30 Y30
G0 F1800 X118.626 Y103.777
M204 S500
M205 X20 Y20
G1 F1200 X116.222 Y101.372 E19.25977
G1 X116.161 Y101.311
M204 S5000
M205 X30 Y30
G0 F1800 X115.727 Y101.372
M204 S500
M205 X20 Y20
G1 F1200 X118.626 Y104.272 E19.34927
G1 X118.687 Y104.333
M204 S5000
M205 X30 Y30
G0 F1800 X118.626 Y104.767
M204 S500
M205 X20 Y20
G1 F1200 X115.232 Y101.372 E19.45406
G1 X115.171 Y101.311
M204 S5000
M205 X30 Y30
G0 F1800 X114.737 Y101.372
M204 S500
M205 X20 Y20
G1 F1200 X118.626 Y105.262 E19.57412
G1 X118.687 Y105.323
M204 S5000
M205 X30 Y30
G0 F1800 X118.626 Y105.757
M204 S500
M205 X20 Y20
G1 F1200 X114.242 Y101.372 E19.70946
G1 X114.181 Y101.311
M204 S5000
M205 X30 Y30
G0 F1800 X113.747 Y101.372
M204 S500
M205 X20 Y20
G1 F1200 X118.626 Y106.251 E19.86006
G1 X118.687 Y106.312
M204 S5000
M205 X30 Y30
G0 F1800 X118.626 Y106.746
M204 S500
M205 X20 Y20
G1 F1200 X113.252 Y101.372 E20.02595
G1 X113.191 Y101.311
M204 S5000
M205 X30 Y30
G0 F1800 X112.757 Y101.372
M204 S500
M205 X20 Y20
G1 F1200 X118.626 Y107.241 E20.20711
G1 X118.687 Y107.302
M204 S5000
M205 X30 Y30
G0 F1800 X118.626 Y107.736
M204 S500
M205 X20 Y20
G1 F1200 X112.262 Y101.372 E20.40356
G1 X112.201 Y101.311
M204 S5000
M205 X30 Y30
G0 F1800 X111.767 Y101.372
M204 S500
M205 X20 Y20
G1 F1200 X118.626 Y108.231 E20.61528
G1 X118.687 Y108.292
M204 S5000
M205 X30 Y30
G0 F1800 X118.626 Y108.726
M204 S500
M205 X20 Y20
G1 F1200 X111.272 Y101.372 E20.84228
G1 X111.211 Y101.311
M204 S5000
M205 X30 Y30
G0 F1800 X110.777 Y101.372
M204 S500
M205 X20 Y20
G1 F1200 X118.626 Y109.221 E21.08456
G1 X118.687 Y109.282
M204 S5000
M205 X30 Y30
G0 F1800 X118.626 Y109.716
M204 S500
M205 X20 Y20
G1 F1200 X110.282 Y101.372 E21.34213
G1 X110.221 Y101.311
M204 S5000
M205 X30 Y30
G0 F1800 X109.787 Y101.372
M204 S500
M205 X20 Y20
G1 F1200 X118.626 Y110.211 E21.61497
G1 X118.687 Y110.272
M204 S5000
M205 X30 Y30
G0 F1800 X118.626 Y110.706
M204 S500
M205 X20 Y20
G1 F1200 X109.292 Y101.372 E21.90309
G1 X109.231 Y101.311
M204 S5000
M205 X30 Y30
G0 F1800 X108.797 Y101.372
M204 S500
M205 X20 Y20
G1 F1200 X118.626 Y111.201 E22.20649
G1 X118.687 Y111.262
M204 S5000
M205 X30 Y30
G0 F1800 X118.626 Y111.696
M204 S500
M205 X20 Y20
G1 F1200 X108.302 Y101.372 E22.52517
G1 X108.241 Y101.311
M204 S5000
M205 X30 Y30
G0 F1800 X107.807 Y101.372
M204 S500
M205 X20 Y20
G1 F1200 X118.626 Y112.191 E22.85913
G1 X118.687 Y112.252
M204 S5000
M205 X30 Y30
G0 F1800 X118.626 Y112.686
M204 S500
M205 X20 Y20
G1 F1200 X107.312 Y101.372 E23.20838
G1 X107.251 Y101.311
M204 S5000
M205 X30 Y30
G0 F1800 X106.817 Y101.372
M204 S500
M205 X20 Y20
G1 F1200 X118.626 Y113.181 E23.5729
G1 X118.687 Y113.242
M204 S5000
M205 X30 Y30
G0 F1800 X118.626 Y113.676
M204 S500
M205 X20 Y20
G1 F1200 X106.322 Y101.372 E23.95269
G1 X106.261 Y101.311
M204 S5000
M205 X30 Y30
G0 F1800 X105.827 Y101.372
M204 S500
M205 X20 Y20
G1 F1200 X118.626 Y114.171 E24.34777
G1 X118.687 Y114.232
M204 S5000
M205 X30 Y30
G0 F1800 X118.626 Y114.666
M204 S500
M205 X20 Y20
G1 F1200 X105.332 Y101.372 E24.75813
G1 X105.271 Y101.311
M204 S5000
M205 X30 Y30
G0 F1800 X104.837 Y101.372
M204 S500
M205 X20 Y20
G1 F1200 X118.626 Y115.161 E25.18377
G1 X118.687 Y115.222
M204 S5000
M205 X30 Y30
G0 F1800 X118.626 Y115.656
M204 S500
M205 X20 Y20
G1 F1200 X104.342 Y101.372 E25.62469
G1 X104.281 Y101.311
M204 S5000
M205 X30 Y30
G0 F1800 X103.847 Y101.372
M204 S500
M205 X20 Y20
G1 F1200 X118.626 Y116.151 E26.08089
G1 X118.687 Y116.212
M204 S5000
M205 X30 Y30
G0 F1800 X118.626 Y116.646
M204 S500
M205 X20 Y20
G1 F1200 X103.352 Y101.372 E26.55237
G1 X103.291 Y101.311
M204 S5000
M205 X30 Y30
G0 F1800 X102.857 Y101.372
M204 S500
M205 X20 Y20
G1 F1200 X118.626 Y117.141 E27.03912
G1 X118.687 Y117.202
M204 S5000
M205 X30 Y30
G0 F1800 X118.626 Y117.636
M204 S500
M205 X20 Y20
G1 F1200 X102.362 Y101.372 E27.54116
G1 X102.301 Y101.311
M204 S5000
M205 X30 Y30
G0 F1800 X101.867 Y101.372
M204 S500
M205 X20 Y20
G1 F1200 X118.626 Y118.131 E28.05848
G1 X118.687 Y118.192
M204 S5000
M205 X30 Y30
G0 F1800 X118.626 Y118.626
M204 S500
M205 X20 Y20
G1 F1200 X101.372 Y101.372 E28.59107
G1 X101.311 Y101.311
M204 S5000
M205 X30 Y30
G0 F1800 X101.372 Y101.867
M204 S500
M205 X20 Y20
G1 F1200 X118.131 Y118.626 E29.10839
G1 X118.192 Y118.687
M204 S5000
M205 X30 Y30
G0 F1800 X117.636 Y118.626
M204 S500
M205 X20 Y20
G1 F1200 X101.372 Y102.362 E29.61043
G1 X101.311 Y102.301
M204 S5000
M205 X30 Y30
